!!!!SEGMENT: pl-wn--mus-iii-65-947-cim--018_sowinski-wojciech--swiety-wojciech-meczennik-no-16-kwartet-z-chorem.krn
!!!cenid: 18xx:3611
!!!COM: Sowiński, Wojciech
!!!COM-rismID: pe30008543
!!!CDT: ~1803-1880/03/05
!!!CNT:
!!!GTL: Święty Wojciech męczennik
!!!OTL: No. 16. Kwartet z chórem
!!!PDT:
!!!AGN:
!!!SMS-siglum: PL-Wn
!!!SMS-shelfmark: Mus.III.65.947 Cim.
!!!SMS-shelfwork: 018 G
!!!SMS-variant:
!!!SMS-altvar:
!!!NIFC-rismSourceID:
!!!NIFC-rismChildID:
!!!NIFC-islandoraID: none
!!!URL-pdf-islandora:
!!!URL-scan: https://polona.pl/item/swiety-wojciech-meczennik-oratorjo-w-trzech-czesciach-dzielo-66-spiew-z-fortepianem,MTkzODI1Mzc/242/#item @EN{Scan on Polona} @PL{Skany w portalu Polona}
!!!ONB-nifc: UWAGA: oratorium zawiera w źródle 28 numerów podzielonych na 30 plików (rozdzielenie w No. 6 - osobno Recitativo oraz Aria matki i No. 10 - osobno Recitativo, arja i chór oraz Sen). Polecam widok miniatur na Polonie. Uwaga co do obsady: prosimy umieszczać tylko partie występujące w danym numerze (nie całą obsadę oratorium)
!!!AIN: 2 alto 3 bass 2 organ 2 soprn 2 tenor
!!!key: d
**kern	**kern	**dynam	**kern	**text	**dynam	**kern	**text	**dynam	**kern	**text	**dynam	**kern	**text	**dynam	**kern	**text	**dynam	**kern	**text	**dynam	**kern	**text	**dynam	**kern	**text	**dynam	**kern	**text	**dynam
*part11	*part10	*part10	*part9	*part9	*part9	*part8	*part8	*part8	*part7	*part7	*part7	*part6	*part6	*part6	*part5	*part5	*part5	*part4	*part4	*part4	*part3	*part3	*part3	*part2	*part2	*part2	*part1	*part1	*part1
*staff11	*staff10	*	*staff9	*staff9	*	*staff8	*staff8	*	*staff7	*staff7	*	*staff6	*staff6	*	*staff5	*staff5	*	*staff4	*staff4	*	*staff3	*staff3	*	*staff2	*staff2	*	*staff1	*staff1	*
*I"Organo	*I"ORGAN	*	*I"CHORAŁ	*	*	*I"ŚWIĘTY WOJCIECH	*	*	*I"BOLESŁAW	*	*	*I"ASTERY	*	*	*I"PROMIEŃ	*	*	*I"BAS	*	*	*I"TENOR	*	*	*I"ALT	*	*	*I"SOPRAN	*	*
*	*I'Org.	*	*I'V.	*	*	*I'v.	*	*	*I'V.	*	*	*I'V.	*	*	*I'V.	*	*	*I'B.	*	*	*I'T.	*	*	*I'A.	*	*	*I'S.	*	*
*Iorgan	*Iorgan	*	*Ibass	*	*	*Ibass	*	*	*Itenor	*	*	*Ialto	*	*	*Isoprn	*	*	*Ibass	*	*	*Itenor	*	*	*Ialto	*	*	*Isoprn	*	*
*ICklav	*ICklav	*	*ICvox	*	*	*ICvox	*	*	*ICvox	*	*	*ICvox	*	*	*ICvox	*	*	*ICvox	*	*	*ICvox	*	*	*ICvox	*	*	*ICvox	*	*
*	*	*	*	*	*	*	*	*	*	*	*	*	*	*	*	*	*	*IGcoro	*	*	*IGcoro	*	*	*IGcoro	*	*	*IGcoro	*	*
*clefF4	*clefG2	*	*clefF4	*	*	*clefF4	*	*	*clefG2	*	*	*clefG2	*	*	*clefG2	*	*	*clefF4	*	*	*clefGv2	*	*	*clefG2	*	*	*clefG2	*	*
*k[b-]	*k[b-]	*	*k[b-]	*	*	*k[b-]	*	*	*k[b-]	*	*	*k[b-]	*	*	*k[b-]	*	*	*k[b-]	*	*	*k[b-]	*	*	*k[b-]	*	*	*k[b-]	*	*
*d:	*d:	*	*d:	*	*	*d:	*	*	*d:	*	*	*d:	*	*	*d:	*	*	*d:	*	*	*d:	*	*	*d:	*	*	*d:	*	*
*M4/4	*M4/4	*	*M4/4	*	*	*M4/4	*	*	*M4/4	*	*	*M4/4	*	*	*M4/4	*	*	*M4/4	*	*	*M4/4	*	*	*M4/4	*	*	*M4/4	*	*
*met(c)	*met(c)	*	*met(c)	*	*	*met(c)	*	*	*met(c)	*	*	*met(c)	*	*	*met(c)	*	*	*met(c)	*	*	*met(c)	*	*	*met(c)	*	*	*met(c)	*	*
=1	=1	=1	=1	=1	=1	=1	=1	=1	=1	=1	=1	=1	=1	=1	=1	=1	=1	=1	=1	=1	=1	=1	=1	=1	=1	=1	=1	=1	=1
*	*	*	*	*	*	*	*	*	*xywh-#129:82,668,2104,333	*	*	*	*	*	*	*	*	*	*	*	*	*	*	*	*	*	*	*	*
*	*	*	*	*	*	*xywh-#129:174,956,1987,197	*	*	*	*	*	*	*	*	*	*	*	*	*	*	*	*	*	*	*	*	*	*	*
*	*	*	*xywh-#129:256,1081,1817,241	*	*	*	*	*	*	*	*	*	*	*	*	*	*	*	*	*	*	*	*	*	*	*	*	*	*
*xywh-#129:234,1265,1958,401	*xywh-#129:234,1265,1958,401	*	*	*	*	*	*	*	*	*	*	*	*	*	*	*	*	*	*	*	*	*	*	*	*	*	*	*	*
(2D\	1r	.	2D\	B-	.	2D\	Bo-	.	2d/	Bo-	.	1ryy	.	.	1ryy	.	.	1r	.	.	1r	.	.	1r	.	.	1r	.	.
4D\	.	.	(4D\	-ga	.	(4D\	-ga	.	(4d/	-ga	.	.	.	.	.	.	.	.	.	.	.	.	.	.	.	.	.	.	.
4C\	.	.	4C\)	.	.	4C\)	.	.	4c/)	.	.	.	.	.	.	.	.	.	.	.	.	.	.	.	.	.	.	.	.
=2	=2	=2	=2	=2	=2	=2	=2	=2	=2	=2	=2	=2	=2	=2	=2	=2	=2	=2	=2	=2	=2	=2	=2	=2	=2	=2	=2	=2	=2
4F\	1r	.	(4F\	ro-	.	(4F\	ro-	.	(4f/	ro-	.	1ryy	.	.	1ryy	.	.	1r	.	.	1r	.	.	1r	.	.	1r	.	.
4E\	.	.	4E\	.	.	4E\	.	.	4e/	.	.	.	.	.	.	.	.	.	.	.	.	.	.	.	.	.	.	.	.
4C\	.	.	4C\)	.	.	4C\)	.	.	4c/)	.	.	.	.	.	.	.	.	.	.	.	.	.	.	.	.	.	.	.	.
4E\)	.	.	4E\	-dzi-	.	4E\	-dzi-	.	4e/	-dzi-	.	.	.	.	.	.	.	.	.	.	.	.	.	.	.	.	.	.	.
=3	=3	=3	=3	=3	=3	=3	=3	=3	=3	=3	=3	=3	=3	=3	=3	=3	=3	=3	=3	=3	=3	=3	=3	=3	=3	=3	=3	=3	=3
1D;	1r;	.	1D;	-ca	.	1D;	-ca	.	1d;	-ca	.	1ryy	.	.	1ryy	.	.	1r	.	.	1r	.	.	1r	.	.	1r	.	.
=4	=4	=4	=4	=4	=4	=4	=4	=4	=4	=4	=4	=4	=4	=4	=4	=4	=4	=4	=4	=4	=4	=4	=4	=4	=4	=4	=4	=4	=4
2D\	2F/	<	2D/	Dzie-	.	2F\	Dzie-	.	2f/	Dzie-	.	1ryy	.	.	1ryy	.	.	1r	.	.	1r	.	.	1r	.	.	1r	.	.
4BB-\	4G/	.	(4BB-/	-wi-	.	(4G\	-wi-	.	(4g/	-wi-	.	.	.	.	.	.	.	.	.	.	.	.	.	.	.	.	.	.	.
4GG\	4B-/	[[	4GG/)	.	.	4B-\)	.	.	4b-/)	.	.	.	.	.	.	.	.	.	.	.	.	.	.	.	.	.	.	.	.
=5	=5	=5	=5	=5	=5	=5	=5	=5	=5	=5	=5	=5	=5	=5	=5	=5	=5	=5	=5	=5	=5	=5	=5	=5	=5	=5	=5	=5	=5
1AA	1A	f	1AA	-ca	.	1A	-ca	.	1a	-ca	.	1ryy	.	.	1ryy	.	.	1r	.	.	1r	.	.	1r	.	.	1r	.	.
=6	=6	=6	=6	=6	=6	=6	=6	=6	=6	=6	=6	=6	=6	=6	=6	=6	=6	=6	=6	=6	=6	=6	=6	=6	=6	=6	=6	=6	=6
*^	*	*	*^	*	*	*	*	*	*	*	*	*	*	*	*	*	*	*	*	*	*	*	*	*	*	*	*	*	*
*xywh-#129:234,1265,1958,401	*xywh-#129:234,1265,1958,401	*xywh-#129:234,1265,1958,401	*	*	*	*	*	*	*	*	*	*	*	*	*	*	*	*	*	*	*	*	*	*	*	*	*	*	*	*	*
*	*	*	*	*	*xywh-#129:256,1081,1817,241	*	*	*	*	*	*	*	*	*	*	*	*	*	*	*	*	*	*	*	*	*	*	*	*	*	*
2F\	2ryy	2A/ 2c	.	(2A/	2F\	Bo-	.	(2c\	Bo-	.	(2cc\	Bo-	.	1ryy	.	.	1ryy	.	.	1r	.	.	1r	.	.	1r	.	.	1r	.	.
4F/	4BB-\	4d/	.	4F/)	2BB-\	.	.	2B-\)	.	.	2dd\)	.	.	.	.	.	.	.	.	.	.	.	.	.	.	.	.	.	.	.	.
8E/L	4BB-\	4d/	.	8E/L	.	.	.	.	.	.	.	.	.	.	.	.	.	.	.	.	.	.	.	.	.	.	.	.	.	.	.
8D/J	.	.	.	8D/J	.	.	.	.	.	.	.	.	.	.	.	.	.	.	.	.	.	.	.	.	.	.	.	.	.	.	.
*v	*v	*	*	*	*	*	*	*	*	*	*	*	*	*	*	*	*	*	*	*	*	*	*	*	*	*	*	*	*	*	*
=7	=7	=7	=7	=7	=7	=7	=7	=7	=7	=7	=7	=7	=7	=7	=7	=7	=7	=7	=7	=7	=7	=7	=7	=7	=7	=7	=7	=7	=7	=7
1C 1E	1G	.	2.E/	2.C\	-giem	.	2.G\	-giem	.	2.g/	-giem	.	1ryy	.	.	1ryy	.	.	1r	.	.	1r	.	.	1r	.	.	1r	.	.
!LO:LB:g=original	!LO:LB:g=original	!	!	!	!	!	!	!	!	!	!	!	!	!	!	!	!	!	!	!	!	!	!	!	!	!	!	!	!	!
.	.	.	4r	4ryy	.	.	4r	.	.	4r	.	.	.	.	.	.	.	.	.	.	.	.	.	.	.	.	.	.	.	.
!	!	!	!LO:LB:g=original	!	!	!	!LO:LB:g=original	!	!	!LO:LB:g=original	!	!	!	!	!	!	!	!	!	!	!	!	!	!	!	!	!	!	!	!
*	*	*	*v	*v	*	*	*	*	*	*	*	*	*	*	*	*	*	*	*	*	*	*	*	*	*	*	*	*	*	*
=8	=8	=8	=8	=8	=8	=8	=8	=8	=8	=8	=8	=8	=8	=8	=8	=8	=8	=8	=8	=8	=8	=8	=8	=8	=8	=8	=8	=8	=8
*	*	*	*	*	*	*	*	*	*xywh-#129:125,2276,2006,230	*	*	*	*	*	*	*	*	*	*	*	*	*	*	*	*	*	*	*	*
*	*	*	*	*	*	*xywh-#129:92,2425,2061,238	*	*	*	*	*	*	*	*	*	*	*	*	*	*	*	*	*	*	*	*	*	*	*
*	*	*	*xywh-#129:117,2596,2001,222	*	*	*	*	*	*	*	*	*	*	*	*	*	*	*	*	*	*	*	*	*	*	*	*	*	*
*	*	*	*	*	*	*	*	*	*	*	*	*	*	*	*	*	*	*	*	*	*	*	*	*xywh-#129:125,1837,2012,206	*	*	*	*	*
*	*	*	*	*	*	*	*	*	*	*	*	*	*	*	*	*	*	*	*	*	*	*	*	*	*	*	*xywh-#129:171,1677,1912,189	*	*
*	*	*	*	*	*	*	*	*	*	*	*	*	*	*	*	*	*	*	*	*	*xywh-#129:138,1978,2017,225	*	*	*	*	*	*	*	*
*	*	*	*	*	*	*	*	*	*	*	*	*	*	*	*	*	*	*xywh-#129:149,2113,2047,252	*	*	*	*	*	*	*	*	*	*	*
*xywh-#129:117,2754,2020,458	*xywh-#129:117,2754,2020,458	*	*	*	*	*	*	*	*	*	*	*	*	*	*	*	*	*	*	*	*	*	*	*	*	*	*	*	*
2A\	2c/	>	2A\	sła-	.	2c\	sła-	.	2cc\	sla-	.	1ryy	.	.	1ryy	.	.	1r	.	.	1r	.	.	1r	.	.	1r	.	.
4F\	4A/	.	(4F\	-wio-	.	(4A\	-wio-	.	(4a/	-wio-	.	.	.	.	.	.	.	.	.	.	.	.	.	.	.	.	.	.	.
4C/	4G/	]]	4C\)	.	.	4G\)	.	.	4g/)	.	.	.	.	.	.	.	.	.	.	.	.	.	.	.	.	.	.	.	.
=9	=9	=9	=9	=9	=9	=9	=9	=9	=9	=9	=9	=9	=9	=9	=9	=9	=9	=9	=9	=9	=9	=9	=9	=9	=9	=9	=9	=9	=9
1AA	1F	.	2AA/	-na	.	2F\	-na	.	2f/	-na	.	1ryy	.	.	1ryy	.	.	1r	.	.	1r	.	.	1r	.	.	1r	.	.
.	.	.	2r	.	.	2r	.	.	2r	.	.	.	.	.	.	.	.	.	.	.	.	.	.	.	.	.	.	.	.
=10	=10	=10	=10	=10	=10	=10	=10	=10	=10	=10	=10	=10	=10	=10	=10	=10	=10	=10	=10	=10	=10	=10	=10	=10	=10	=10	=10	=10	=10
2F\	2A/ 2c	.	(2A\	Ma-	.	2c\	Ma-	.	2.f/	Ma-	.	1ryy	.	.	1ryy	.	.	1r	.	.	1r	.	.	1r	.	.	1r	.	.
4F\	4A/	.	4F\)	.	.	(4A\	-ry-	.	.	.	.	.	.	.	.	.	.	.	.	.	.	.	.	.	.	.	.	.	.
4C/	4G/	.	4F\	-ry-	.	4G\)	.	.	4a/	-ry-	.	.	.	.	.	.	.	.	.	.	.	.	.	.	.	.	.	.	.
=11	=11	=11	=11	=11	=11	=11	=11	=11	=11	=11	=11	=11	=11	=11	=11	=11	=11	=11	=11	=11	=11	=11	=11	=11	=11	=11	=11	=11	=11
4D\	4F/	<	4D/	-a,	.	4F\	-a,	.	4f/	-a,	.	1ryy	.	.	1ryy	.	.	1r	.	.	1r	.	.	1r	.	.	1r	.	.
4AA\ 4E	4A/	.	4AA/	Ma-	.	4E\	Ma-	.	4e/	Ma-	.	.	.	.	.	.	.	.	.	.	.	.	.	.	.	.	.	.	.
!	!LO:TX:b:t=rall.	!	!	!	!	!	!	!	!	!	!	!	!	!	!	!	!	!	!	!	!	!	!	!	!	!	!	!	!
4.D\	4.F/ 4.d	[	2D\	-ry-	.	2D\	-ry-	.	2d/	-ry-	.	.	.	.	.	.	.	.	.	.	.	.	.	.	.	.	.	.	.
8D\	8F/ 8d	.	.	.	.	.	.	.	.	.	.	.	.	.	.	.	.	.	.	.	.	.	.	.	.	.	.	.	.
=12	=12	=12	=12	=12	=12	=12	=12	=12	=12	=12	=12	=12	=12	=12	=12	=12	=12	=12	=12	=12	=12	=12	=12	=12	=12	=12	=12	=12	=12
1D;	1F; 1d	pp	1D;	-a!	.	1D;	-a!	.	1d;	-a!	.	1ryy	.	.	1ryy	.	.	1r	.	.	1r	.	.	1r	.	.	1r	.	.
=13	=13	=13	=13	=13	=13	=13	=13	=13	=13	=13	=13	=13	=13	=13	=13	=13	=13	=13	=13	=13	=13	=13	=13	=13	=13	=13	=13	=13	=13
!	!LO:N:vis=1	!	!	!	!	!	!	!	!	!	!	!	!	!	!	!	!	!	!	!	!	!	!	!	!	!	!	!	!
2D\	(2F/ 2A 2d	mf	2D/	Bo-	.	1r	.	.	1r	.	.	1ryy	.	.	1ryy	.	.	2D\	Bo-	.	2F/	Bo-	.	2d/	Bo-	.	1r	.	.
4D\	4F/ 4A 4d	.	(4D/	-ga	.	.	.	.	.	.	.	.	.	.	.	.	.	(4D/	-ga	.	(4F/	-ga	.	(4d/	-ga	.	.	.	.
4AA\	4E/ 4A 4c	.	4AA/)	.	.	.	.	.	.	.	.	.	.	.	.	.	.	4AA/)	.	.	4E/)	.	.	4c/)	.	.	.	.	.
=14	=14	=14	=14	=14	=14	=14	=14	=14	=14	=14	=14	=14	=14	=14	=14	=14	=14	=14	=14	=14	=14	=14	=14	=14	=14	=14	=14	=14	=14
*^	*	*	*	*	*	*	*	*	*	*	*	*	*	*	*	*	*	*	*	*	*	*	*	*	*	*	*	*	*
*xywh-#129:117,2754,2020,458	*xywh-#129:117,2754,2020,458	*xywh-#129:117,2754,2020,458	*	*	*	*	*	*	*	*	*	*	*	*	*	*	*	*	*	*	*	*	*	*	*	*	*	*	*	*
8F/L	4D\	4f/	.	(4D/	ro-	.	1r	.	.	1r	.	.	1ryy	.	.	1ryy	.	.	(4D/	ro-	.	8F/L	ro-	.	(4f/	ro-	.	1r	.	.
8G/J	.	.	.	.	.	.	.	.	.	.	.	.	.	.	.	.	.	.	.	.	.	8G/J	.	.	.	.	.	.	.	.
4A/	4C\	4e/	.	4C/	.	.	.	.	.	.	.	.	.	.	.	.	.	.	4C/	.	.	2A/	.	.	4e/	.	.	.	.	.
4A/	4AA\	4c/	>	4AA/)	.	.	.	.	.	.	.	.	.	.	.	.	.	.	4AA/)	.	.	.	.	.	4d/)	.	.	.	.	.
4A/	4C\	4e/	]]	4AA/	-dzi-	.	.	.	.	.	.	.	.	.	.	.	.	.	4AA/	-dzi-	.	4c\	-dzi-	.	4e/	-dzi-	.	.	.	.
*v	*v	*	*	*	*	*	*	*	*	*	*	*	*	*	*	*	*	*	*	*	*	*	*	*	*	*	*	*	*	*
=15	=15	=15	=15	=15	=15	=15	=15	=15	=15	=15	=15	=15	=15	=15	=15	=15	=15	=15	=15	=15	=15	=15	=15	=15	=15	=15	=15	=15	=15
1D 1F	1d^)	.	1D	-ca	.	1r	.	.	1r	.	.	1ryy	.	.	1ryy	.	.	2.D/	-ca	.	2.F/	-ca	.	2.d/	-ca	.	1r	.	.
!LO:PB:g=original	!LO:PB:g=original	!	!LO:PB:g=original	!	!	!LO:PB:g=original	!	!	!LO:PB:g=original	!	!	!	!	!	!	!	!	!	!	!	!	!	!	!	!	!	!	!	!
.	.	.	.	.	.	.	.	.	.	.	.	.	.	.	.	.	.	4r	.	.	4r	.	.	4r	.	.	.	.	.
!	!	!	!	!	!	!	!	!	!	!	!	!	!	!	!	!	!	!LO:PB:g=original	!	!	!LO:PB:g=original	!	!	!LO:PB:g=original	!	!	!	!	!
=16	=16	=16	=16	=16	=16	=16	=16	=16	=16	=16	=16	=16	=16	=16	=16	=16	=16	=16	=16	=16	=16	=16	=16	=16	=16	=16	=16	=16	=16
*	*	*	*	*	*	*	*	*	*	*	*	*	*	*	*	*	*	*	*	*	*	*	*	*	*	*	*xywh-#130:448,134,2056,241	*	*
*	*	*	*	*	*	*	*	*	*	*	*	*	*	*	*	*	*	*	*	*	*	*	*	*xywh-#130:485,313,2018,232	*	*	*	*	*
*	*	*	*	*	*	*	*	*	*	*	*	*	*	*	*	*	*	*	*	*	*xywh-#130:498,464,1990,229	*	*	*	*	*	*	*	*
*	*	*	*	*	*	*	*	*	*	*	*	*	*	*	*	*	*	*xywh-#130:510,599,1977,244	*	*	*	*	*	*	*	*	*	*	*
*	*	*	*	*	*	*	*	*	*xywh-#130:485,781,2018,216	*	*	*	*	*	*	*	*	*	*	*	*	*	*	*	*	*	*	*	*
*	*	*	*	*	*	*xywh-#130:463,922,2030,222	*	*	*	*	*	*	*	*	*	*	*	*	*	*	*	*	*	*	*	*	*	*	*
*	*	*	*xywh-#130:482,1045,1974,263	*	*	*	*	*	*	*	*	*	*	*	*	*	*	*	*	*	*	*	*	*	*	*	*	*	*
*xywh-#130:418,1188,2043,439	*xywh-#130:418,1188,2043,439	*	*	*	*	*	*	*	*	*	*	*	*	*	*	*	*	*	*	*	*	*	*	*	*	*	*	*	*
2D\	2F/ 2A 2f	.	2D\	Dzie-	.	2r	.	.	2r	.	.	1ryy	.	.	1ryy	.	.	2D\	Dzie-	.	2A/	Dzie-	.	2f/	Dzie-	.	1r	.	.
!	!	!	!	!	!	!	!	!	!	!	!	!	!	!	!	!	!	!	!	!LO:DY:a	!	!	!LO:DY:a	!	!	!LO:DY:a	!	!	!
4GG\ 4G	4B-/ 4g	.	(4BB-/	-wi-	.	2G\	Dzie-	.	2r	.	.	.	.	.	.	.	.	2GG/	-wi-	<[	(4B-\	-wi-	<	(4g/	-wi-	<	.	.	.
4GG\ 4G	4d/ 4b-	.	4GG/)	.	.	.	.	.	.	.	.	.	.	.	.	.	.	.	.	.	4d\)	.	[[	4b-/)	.	[[	.	.	.
=17	=17	=17	=17	=17	=17	=17	=17	=17	=17	=17	=17	=17	=17	=17	=17	=17	=17	=17	=17	=17	=17	=17	=17	=17	=17	=17	=17	=17	=17
!	!	!	!	!	!	!	!	!	!	!	!	!	!	!	!	!	!	!	!	!LO:DY:a	!	!	!LO:DY:a	!	!	!LO:DY:a	!	!	!
1AA 1A	1c#X 1a	.	1AA	-ca	.	2.A\	-wi-	.	1r	.	.	1ryy	.	.	1ryy	.	.	1AA	-ca	>]	1c	-ca	>]	1a	-ca	>]	1r	.	.
.	.	.	.	.	.	4A\	-ca	.	.	.	.	.	.	.	.	.	.	.	.	.	.	.	.	.	.	.	.	.	.
=18	=18	=18	=18	=18	=18	=18	=18	=18	=18	=18	=18	=18	=18	=18	=18	=18	=18	=18	=18	=18	=18	=18	=18	=18	=18	=18	=18	=18	=18
*	*^	*	*	*	*	*	*	*	*	*	*	*	*	*	*	*	*	*	*	*	*	*	*	*	*	*	*	*	*
*xywh-#130:418,1188,2043,439	*xywh-#130:418,1188,2043,439	*xywh-#130:418,1188,2043,439	*	*	*	*	*	*	*	*	*	*	*	*	*	*	*	*	*	*	*	*	*	*	*	*	*	*	*	*
!	!	!	!	!	!	!LO:DY:a	!	!	!LO:DY:a	!	!	!LO:DY:a	!	!	!	!	!	!	!	!	!LO:DY:a	!	!	!LO:DY:a	!	!	!LO:DY:a	!	!	!LO:DY:a
2F\ 2A	2f/ 2ccn	2cn\	f <	(2AA/	Bo-	f	2A\	Bo-	f	2ccn\	Bo-	f	1ryy	.	.	1ryy	.	.	(2A\	Bo-	f	2c\	Bo-	f	2f/	Bo-	f	(2ccn\	Bo-	f
4BB-\ 4B-	4dd/	4f\	[ >	2BB-/)	.	.	4B-\	-giem	.	4ff\	-giem	.	.	.	.	.	.	.	4B-\	.	.	4f\	-giem	.	4d/	-giem	.	2dd\)	.	.
4BB-\ 4B-	4dd/	8e\L	.	.	.	.	4B-\	sła-	.	(8ee\L	sła-	.	.	.	.	.	.	.	4BB-/)	.	.	(8e\L	sła-	.	(8e/L	sła-	.	.	.	.
.	.	8d\J	.	.	.	.	.	.	.	8dd\J)	.	.	.	.	.	.	.	.	.	.	.	8d\J)	.	.	8f/J)	.	.	.	.	.
=19	=19	=19	=19	=19	=19	=19	=19	=19	=19	=19	=19	=19	=19	=19	=19	=19	=19	=19	=19	=19	=19	=19	=19	=19	=19	=19	=19	=19	=19	=19
1C 1c	2g/	2f\	]	1C	-giem	.	2c\	-wio-	.	2.cc\	-wio-	.	1ryy	.	.	1ryy	.	.	1C	-giem	.	2.c\	-wio-	.	2f/	-wio-	.	1g	-giem	.
.	2g/	2e\	.	.	.	.	2C\	-na	.	.	.	.	.	.	.	.	.	.	.	.	.	.	.	.	2e/	-na	.	.	.	.
.	.	.	.	.	.	.	.	.	.	4b-\	-na	.	.	.	.	.	.	.	.	.	.	4c\	-na	.	.	.	.	.	.	.
*	*v	*v	*	*	*	*	*	*	*	*	*	*	*	*	*	*	*	*	*	*	*	*	*	*	*	*	*	*	*	*
=20	=20	=20	=20	=20	=20	=20	=20	=20	=20	=20	=20	=20	=20	=20	=20	=20	=20	=20	=20	=20	=20	=20	=20	=20	=20	=20	=20	=20	=20
!	!	!	!	!	!LO:DY:a	!	!	!LO:DY:a	!	!	!LO:DY:a	!	!	!	!	!	!	!	!	!LO:DY:a	!	!	!LO:DY:a	!	!	!LO:DY:a	!	!	!LO:DY:a
2F\ 2A	2c/ 2f 2cc	p	2F\	sła-	p	2E\	sła-	p	2a\	sła-	p	1ryy	.	.	1ryy	.	.	2F\	sła-	p	2A\	sła-	p	2f/	sła-	p	2cc\	sła-	p
4F\	4c/ 4f 4a	.	(4F\	-wio-	.	(4F\	-wio-	.	(4cc\	-wio-	.	.	.	.	.	.	.	(4F\	-wio-	.	(4c\	-wio-	.	(4f/	-wio-	.	(4a\	-wio-	.
4C\	4c/ 4e 4g	.	4C\)	.	.	4C\)	.	.	8cc\L	.	.	.	.	.	.	.	.	4C\)	.	.	8c\L	.	.	4e/)	.	.	4g\)	.	.
.	.	.	.	.	.	.	.	.	8b-\J)	.	.	.	.	.	.	.	.	.	.	.	8B-\J)	.	.	.	.	.	.	.	.
=21	=21	=21	=21	=21	=21	=21	=21	=21	=21	=21	=21	=21	=21	=21	=21	=21	=21	=21	=21	=21	=21	=21	=21	=21	=21	=21	=21	=21	=21
1F 1A	1f	.	2.F\	-na	.	[2F\	-na	.	2.a\	-na	.	1ryy	.	.	1ryy	.	.	2.F\	-na	.	2.A\	-na	.	2.f/	-na	.	2.f/	-na	.
.	.	.	.	.	.	4.F\]	.	.	.	.	.	.	.	.	.	.	.	.	.	.	.	.	.	.	.	.	.	.	.
.	.	.	4F\	Ma-	.	.	.	.	4a\	Ma-	.	.	.	.	.	.	.	4F\	Ma-	.	4A\	Ma-	.	4f/	Ma-	.	4f/	Ma-	.
.	.	.	.	.	.	8F\	Ma-	.	.	.	.	.	.	.	.	.	.	.	.	.	.	.	.	.	.	.	.	.	.
=22	=22	=22	=22	=22	=22	=22	=22	=22	=22	=22	=22	=22	=22	=22	=22	=22	=22	=22	=22	=22	=22	=22	=22	=22	=22	=22	=22	=22	=22
2F\ 2A	2c/ 2f 2a	.	2F\	-ry-	.	2F\	-ry-	.	2cc\	-ry-	.	1ryy	.	.	1ryy	.	.	2F^\	-ry-	.	2c^\	-ry-	.	2a^/	-ry-	.	2cc^\	-ry-	.
4F\	4c/ 4f 4a	.	4F\	-a,	.	4F\	-a,	.	4cc\	-a,	.	.	.	.	.	.	.	4F\	-a,	.	4c\	-a,	.	4f/	-a,	.	4a/	-a,	.
4C\	4c/ 4e 4g	.	4C\	Ma-	.	4C\	Ma-	.	(8cc\L	Ma-	.	.	.	.	.	.	.	4C\	Ma-	.	8c\L	Ma-	.	4e/	Ma-	.	4g/	Ma-	.
!LO:LB:g=original	!LO:LB:g=original	!	!LO:LB:g=original	!	!	!LO:LB:g=original	!	!	!	!	!	!	!	!	!	!	!	!LO:LB:g=original	!	!	!	!	!	!LO:LB:g=original	!	!	!LO:LB:g=original	!	!
.	.	.	.	.	.	.	.	.	8b-\J)	.	.	.	.	.	.	.	.	.	.	.	8B-\J	.	.	.	.	.	.	.	.
!	!	!	!	!	!	!	!	!	!LO:LB:g=original	!	!	!	!	!	!	!	!	!	!	!	!LO:LB:g=original	!	!	!	!	!	!	!	!
=23	=23	=23	=23	=23	=23	=23	=23	=23	=23	=23	=23	=23	=23	=23	=23	=23	=23	=23	=23	=23	=23	=23	=23	=23	=23	=23	=23	=23	=23
*	*	*	*	*	*	*	*	*	*	*	*	*	*	*	*	*	*	*	*	*	*	*	*	*	*	*	*xywh-#130:427,1550,2103,247	*	*
*	*	*	*	*	*	*	*	*	*	*	*	*	*	*	*	*	*	*	*	*	*	*	*	*xywh-#130:499,1714,1952,247	*	*	*	*	*
*	*	*	*	*	*	*	*	*	*	*	*	*	*	*	*	*	*	*	*	*	*xywh-#130:446,1880,2018,238	*	*	*	*	*	*	*	*
*	*	*	*	*	*	*	*	*	*	*	*	*	*	*	*	*	*	*xywh-#130:524,2050,1946,194	*	*	*	*	*	*	*	*	*	*	*
*	*	*	*	*	*	*	*	*	*	*	*	*	*	*	*xywh-#130:480,2169,1946,222	*	*	*	*	*	*	*	*	*	*	*	*	*	*
*	*	*	*	*	*	*	*	*	*xywh-#130:501,2312,1905,221	*	*	*	*	*	*	*	*	*	*	*	*	*	*	*	*	*	*	*	*
*	*	*	*	*	*	*xywh-#130:501,2461,1923,237	*	*	*	*	*	*	*	*	*	*	*	*	*	*	*	*	*	*	*	*	*	*	*
*	*	*	*xywh-#130:452,2584,1970,230	*	*	*	*	*	*	*	*	*	*	*	*	*	*	*	*	*	*	*	*	*	*	*	*	*	*
*xywh-#130:454,2743,2002,458	*xywh-#130:454,2743,2002,458	*	*	*	*	*	*	*	*	*	*	*	*	*	*	*	*	*	*	*	*	*	*	*	*	*	*	*	*
4FF\ 4F	4A/ 4c 4f	.	(4FF/	-ry-	.	4F\	-ry-	.	2a/	-ry-	.	1ryy	.	.	1r;	.	.	(4F\	-ry-	.	(4A\	-ry-	.	4c/	-ry-	.	(4f/	-ry-	.
4AAA\ 4AA	4A/ 4c#X 4e	.	4AA/)	.	.	4AA/	.	.	.	.	.	.	.	.	.	.	.	4AA/)	.	.	8A/L	.	.	4c#X/	.	.	4e/)	.	.
.	.	.	.	.	.	.	.	.	.	.	.	.	.	.	.	.	.	.	.	.	8G/J)	.	.	.	.	.	.	.	.
2DD;\ 2D	2F;/ 2A 2d	.	4.D;\	-a,	.	4.D;\	-a,	.	4.a;\	-a,	.	.	.	.	.	.	.	4.D;\	-a,	.	4.F;/	-a!	.	4.d;/	-a,	.	4.d;/	-a,	.
!	!	!	!	!	!	!LO:TX:a:t=rall.	!	!	!LO:TX:a:t=rall.	!	!	!	!	!	!	!	!	!LO:TX:a:t=rall.	!	!	!LO:TX:a:t=rall.	!	!	!LO:TX:a:t=rall.	!	!	!LO:TX:a:t=rall.	!	!
.	.	.	8D\	Ma-	.	8D\	Ma-	.	8dd\	Ma-	.	.	.	.	.	.	.	8D\	Ma-	.	8d\	Ma-	.	8d/	Ma-	.	8d/	Ma-	.
=24	=24	=24	=24	=24	=24	=24	=24	=24	=24	=24	=24	=24	=24	=24	=24	=24	=24	=24	=24	=24	=24	=24	=24	=24	=24	=24	=24	=24	=24
2GGG\ 2GG	2B-/ 2g	.	(2GG/	-ry-	.	(2GG/	-ry-	.	(2cc\	-ry-	.	1ryy	.	.	1r	.	.	(2GG/	-ry-	.	(2G/	-ry-	.	2B-/	-ry-	.	(2g/	-ry-	.
!	!	!	!	!	!LO:DY:a	!	!	!LO:DY:a	!	!	!LO:DY:a	!	!	!	!	!	!	!	!	!	!	!	!	!	!	!LO:DY:a	!	!	!
4AAA\ 4AA	4A/ 4f	.	4AA/	.	pp	4AA/	.	pp	2a\)	.	pp	.	.	.	.	.	.	4AA/	.	.	4A/	.	.	2A/	.	pp	4f/	.	.
!	!	!	!	!	!	!LO:N:vis=16	!	!	!	!	!	!	!	!	!	!	!	!LO:N:vis=16	!	!LO:DY:a	!	!	!LO:DY:a	!	!	!	!	!	!LO:DY:a
8BBn/L	4G/ 4A 4e	.	8BBn/L	.	.	8BBn/L	.	.	.	.	.	.	.	.	.	.	.	8BBn/L	.	pp	4G/)	.	pp	.	.	.	4e/)	.	pp
!	!	!	!	!	!	!LO:N:vis=16	!	!	!	!	!	!	!	!	!	!	!	!LO:N:vis=16	!	!	!	!	!	!	!	!	!	!	!
8C#X/J	.	.	8C/J)	.	.	8C#X/J)	.	.	.	.	.	.	.	.	.	.	.	8C#X/J)	.	.	.	.	.	.	.	.	.	.	.
=25	=25	=25	=25	=25	=25	=25	=25	=25	=25	=25	=25	=25	=25	=25	=25	=25	=25	=25	=25	=25	=25	=25	=25	=25	=25	=25	=25	=25	=25
1DD 1D	1A 1d	pp	1D	-a!	.	1D	-a!	.	1a	-a!	.	1ryy	.	.	1r	.	.	1D	-a!	.	1F	-a!	.	1A	-a!	.	1d	-a!	.
=26||	=26||	=26||	=26||	=26||	=26||	=26||	=26||	=26||	=26||	=26||	=26||	=26||	=26||	=26||	=26||	=26||	=26||	=26||	=26||	=26||	=26||	=26||	=26||	=26||	=26||	=26||	=26||	=26||	=26||
!	!LO:TX:a:t=I CHORAŁ	!	!	!	!	!LO:TX:a:t=WOJCIECH	!	!	!LO:TX:a:t=BOLESŁAW	!	!	!LO:TX:a:t=ASTERY	!	!	!LO:TX:a:t=PROMIEŃ	!	!	!LO:TX:a:t=BAS	!	!	!LO:TX:a:t=TENOR	!	!	!LO:TX:a:t=ALT	!	!	!LO:TX:a:t=SOPRAN	!	!
2DD\ 2D	2F/ 2A 2d	.	1ryy	.	.	2r	.	.	2r	.	.	2r	.	.	2r	.	.	2r	.	.	2r	.	.	2r	.	.	2r	.	.
4AA/	4a^/	.	.	.	.	4B-\	Twe-	.	4a/	Twe-	.	4a/	Twe-	.	4a/	Twe-	.	4A\	Twe-	.	4A/	Twe-	.	4a\	Twe-	.	4a/	Twe-	.
4AA/	4a^/	.	.	.	.	4B-\	-go	.	4a/	-go	.	4a/	-go	.	4a/	-go	.	4A\	-go	.	4A/	-go	.	4a\	-go	.	4a/	-go	.
=27	=27	=27	=27	=27	=27	=27	=27	=27	=27	=27	=27	=27	=27	=27	=27	=27	=27	=27	=27	=27	=27	=27	=27	=27	=27	=27	=27	=27	=27
*	*	*	*	*	*	*^	*	*	*	*	*	*	*	*	*	*	*	*	*	*	*	*	*	*	*	*	*	*	*
*xywh-#130:454,2743,2002,458	*xywh-#130:454,2743,2002,458	*	*	*	*	*	*	*	*	*	*	*	*	*	*	*	*	*	*	*	*	*	*	*	*	*	*	*	*	*
!	!	!	!	!	!	!	!	!	!	!	!	!	!	!	!	!	!	!LO:DY:a	!	!	!LO:DY:a	!	!	!LO:DY:a	!	!	!LO:DY:a	!	!	!LO:DY:a
2DD/ 2FF 2AA 2D	2d\ 2f 2a 2dd	f	1ryy	.	.	2D\	2ryy	sy-	.	2dd\	sy-	.	(4a/	sy-	.	2dd\	sy-	f	2D/	sy-	f	2d\	sy-	f	2a\	sy-	f	2dd\	sy-	f
.	.	.	.	.	.	.	.	.	.	.	.	.	8f/L)	.	.	.	.	.	.	.	.	.	.	.	.	.	.	.	.	.
.	.	.	.	.	.	.	.	.	.	.	.	.	8e/J	.	.	.	.	.	.	.	.	.	.	.	.	.	.	.	.	.
4BBB-/ 4BB-	4d\ 4f 4b- 4dd	.	.	.	.	4B-/	4BB-\	-na	.	4b-\	-na	.	4d/	-na	.	4dd\	-na	.	4BB-/	-na	.	4f\	-ba	.	4b-\	-na	.	4dd\	-na	.
4FF/ 4F	4c\ 4f 4a 4cc	.	.	.	.	4F/	4FF\	Chrzci-	.	4cc\	Chrzci-	.	(8f/L	Chrzci-	.	4cc\	Chrzci-	.	4F\	Chrzci-	.	4f\	Chrzci-	.	4a\	Chrzci-	.	4cc\	Chrzci-	.
.	.	.	.	.	.	.	.	.	.	.	.	.	8a/J)	.	.	.	.	.	.	.	.	.	.	.	.	.	.	.	.	.
=28	=28	=28	=28	=28	=28	=28	=28	=28	=28	=28	=28	=28	=28	=28	=28	=28	=28	=28	=28	=28	=28	=28	=28	=28	=28	=28	=28	=28	=28	=28
4DD/ 4D	4f\ 4a 4ff	.	1ryy	.	.	4D\	4ryy	-cie-	.	4dd\	-cie-	.	4dd\	-cie-	.	4ff\	-cie-	.	4E\	-cie-	.	4d\	-cie-	.	4a\	-cie-	.	4ff\	-cie-	.
4AA\ 4C 4E 4A	4e\ 4a 4cc 4ee	.	.	.	.	4A/	4AA\	-la	.	4a\	-la	.	4a/	-la	.	4ee\	-la	.	4AA/	-la	.	4c\	-la	.	4a\	-la	.	4ee\	-la	.
4AA\ 4C 4E 4A	4c\ 4e 4a 4cc	.	.	.	.	4A/	4AA\	zbo-	.	4ee\	zbo-	.	4a/	zboż-	.	4cc\	zboż-	.	4AA/	zboż-	.	4A/	zbo-	.	4a\	zboż-	.	4cc\	zboż-	.
4AA\ 4C 4E 4A	4e\ 4a 4cc 4ee	.	.	.	.	4A/	4AA\	-żny	.	4a\	-żny	.	4a/	-ny	.	4ee\	-ny	.	8BBn/L	-ny	.	4A/	-żny	.	4a\	-ny	.	4ee\	-ny	.
.	.	.	.	.	.	.	.	.	.	.	.	.	.	.	.	.	.	.	8Cn/J	.	.	.	.	.	.	.	.	.	.	.
*	*	*	*	*	*	*v	*v	*	*	*	*	*	*	*	*	*	*	*	*	*	*	*	*	*	*	*	*	*	*	*
=29	=29	=29	=29	=29	=29	=29	=29	=29	=29	=29	=29	=29	=29	=29	=29	=29	=29	=29	=29	=29	=29	=29	=29	=29	=29	=29	=29	=29	=29
2DD\ 2D	2d\ 2f 2a 2dd	.	1ryy	.	.	1D	czas!	.	1dd	czas!	.	1a	czas!	.	1dd	czas!	.	1D	czas!	.	1A	czas!	.	1f	czas!	.	1dd	czas!	.
!	!	!	!	!	!	!	!LO:PB:g=original	!	!	!	!	!	!LO:PB:g=original	!	!	!LO:PB:g=original	!	!	!LO:PB:g=original	!	!	!LO:PB:g=original	!	!	!LO:PB:g=original	!	!	!LO:PB:g=original	!
32qqA/LLL	32qqa/LLL	.	.	.	.	.	.	.	.	.	.	.	.	.	.	.	.	.	.	.	.	.	.	.	.	.	.	.	.
32qqBn/	32qqbn/	.	.	.	.	.	.	.	.	.	.	.	.	.	.	.	.	.	.	.	.	.	.	.	.	.	.	.	.
32qqc#X/JJJ	32qqdd#X/JJJ	.	.	.	.	.	.	.	.	.	.	.	.	.	.	.	.	.	.	.	.	.	.	.	.	.	.	.	.
4d\	4ddn\	.	.	.	.	.	.	.	.	.	.	.	.	.	.	.	.	.	.	.	.	.	.	.	.	.	.	.	.
4A\	4a\	.	.	.	.	.	.	.	.	.	.	.	.	.	.	.	.	.	.	.	.	.	.	.	.	.	.	.	.
!LO:PB:g=original	!LO:PB:g=original	!	!	!	!	!	!	!	!	!	!	!	!	!	!	!	!	!	!	!	!	!	!	!	!	!	!	!	!
=30	=30	=30	=30	=30	=30	=30	=30	=30	=30	=30	=30	=30	=30	=30	=30	=30	=30	=30	=30	=30	=30	=30	=30	=30	=30	=30	=30	=30	=30
*	*	*	*	*	*	*	*	*	*	*	*	*	*	*	*	*	*	*	*	*	*	*	*	*	*	*	*xywh-#131:110,185,2116,232	*	*
*	*	*	*	*	*	*	*	*	*	*	*	*	*	*	*	*	*	*	*	*	*	*	*	*xywh-#131:168,342,2011,201	*	*	*	*	*
*	*	*	*	*	*	*	*	*	*	*	*	*	*	*	*	*	*	*	*	*	*xywh-#131:160,484,1967,204	*	*	*	*	*	*	*	*
*	*	*	*	*	*	*	*	*	*	*	*	*	*	*	*	*	*	*xywh-#131:157,609,2024,204	*	*	*	*	*	*	*	*	*	*	*
*	*	*	*	*	*	*	*	*	*	*	*	*	*	*	*xywh-#131:142,748,2024,217	*	*	*	*	*	*	*	*	*	*	*	*	*	*
*	*	*	*	*	*	*	*	*	*	*	*	*xywh-#131:131,897,2050,214	*	*	*	*	*	*	*	*	*	*	*	*	*	*	*	*	*
*	*	*	*	*	*	*	*	*	*xywh-#131:168,1038,2014,193	*	*	*	*	*	*	*	*	*	*	*	*	*	*	*	*	*	*	*	*
*	*	*	*	*	*	*xywh-#131:139,1174,2016,201	*	*	*	*	*	*	*	*	*	*	*	*	*	*	*	*	*	*	*	*	*	*	*
*xywh-#131:40,1257,2184,489	*xywh-#131:40,1257,2184,489	*	*	*	*	*	*	*	*	*	*	*	*	*	*	*	*	*	*	*	*	*	*	*	*	*	*	*	*
4F\	4f/	.	1ryy	.	.	2r	.	.	2r	.	.	2r	.	.	2r	.	.	2r	.	.	2r	.	.	2r	.	.	2r	.	.
4D\	4d/	.	.	.	.	.	.	.	.	.	.	.	.	.	.	.	.	.	.	.	.	.	.	.	.	.	.	.	.
4AA/	12A/L	.	.	.	.	4A\	us-	.	4a/	us-	.	4a/	us-	.	4a/	us-	.	4A\	u-	.	4A/	us-	.	4a/	us-	.	4a/	us-	.
.	12A/ 12a	<	.	.	.	.	.	.	.	.	.	.	.	.	.	.	.	.	.	.	.	.	.	.	.	.	.	.	.
.	12Bn/J 12bn	.	.	.	.	.	.	.	.	.	.	.	.	.	.	.	.	.	.	.	.	.	.	.	.	.	.	.	.
4AA\ 4A	12c#X/L 12cc#X	.	.	.	.	4A\	-łysz	.	4a/	-łysz	.	4a/	-łysz	.	4a/	-łysz	.	4A\	-słysz	.	4A/	-łysz	.	4a/	-łysz	.	4a/	-łysz	.
.	12d/ 12dd	.	.	.	.	.	.	.	.	.	.	.	.	.	.	.	.	.	.	.	.	.	.	.	.	.	.	.	.
.	12e/J 12ee	[[	.	.	.	.	.	.	.	.	.	.	.	.	.	.	.	.	.	.	.	.	.	.	.	.	.	.	.
=31	=31	=31	=31	=31	=31	=31	=31	=31	=31	=31	=31	=31	=31	=31	=31	=31	=31	=31	=31	=31	=31	=31	=31	=31	=31	=31	=31	=31	=31
!	!	!	!	!	!	!	!	!LO:DY:a	!	!	!LO:DY:a	!	!	!LO:DY:a	!	!	!LO:DY:a	!	!	!LO:DY:a	!	!	!LO:DY:a	!	!	!LO:DY:a	!	!	!LO:DY:a
2DD/ 2D	1r	f	1ryy	.	.	2D/	gło-	f f	2dd\	gło-	f	2a/	gło-	f	2ff\	gło-	f	2D\	gło-	f	2d\	gło-	f	2dd\	gło-	f	2ff\	gło-	f
2r	.	.	.	.	.	4D/	-sy,	.	4dd\	-sy,	.	4a/	-sy,	.	4ff\	-sy,	.	4D\	-sy,	.	4d\	-sy,	.	4dd\	-sy,	.	4ff\	-sy,	.
.	.	.	.	.	.	4AA/	na-	.	4a\	na-	.	8a/L	na-	.	4ee\	na-	.	4AA/	na-	.	4e\	na-	.	4cc#X\	na-	.	4ee\	na-	.
.	.	.	.	.	.	.	.	.	.	.	.	8g/J	.	.	.	.	.	.	.	.	.	.	.	.	.	.	.	.	.
=32	=32	=32	=32	=32	=32	=32	=32	=32	=32	=32	=32	=32	=32	=32	=32	=32	=32	=32	=32	=32	=32	=32	=32	=32	=32	=32	=32	=32	=32
*	*	*	*	*	*	*^	*	*	*	*	*	*	*	*	*	*	*	*	*	*	*	*	*	*	*	*	*	*	*
*xywh-#131:40,1257,2184,489	*xywh-#131:40,1257,2184,489	*	*	*	*	*	*	*	*	*	*	*	*	*	*	*	*	*	*	*	*	*	*	*	*	*	*	*	*	*
1r	1r	.	1ryy	.	.	4D/	4ryy	-peł-	.	4dd\	-peł-	.	4f/	-peł-	.	4ff\	-peł-	.	4D\	-peł-	.	4A/	-peł-	.	4dd\	-peł-	.	4ff\	-peł-	.
.	.	.	.	.	.	4G/	4BB-\	-nij	.	4b-\	-nij	.	4g/	-nij	.	4gg\	-nij	.	4BB-/	-nij	.	4B-\	-nij	.	4dd\	-nij	.	4gg\	-nij	.
.	.	.	.	.	.	4G/	4GG\	myś-	.	4b-\	mys-	.	4dd\	myś-	.	4bb-\	myś-	.	4GG/	myś-	.	4d\	myś-	.	4b-\	myś-	.	4gg\	myś-	.
.	.	.	.	.	.	8G/	8GG\	-li	.	8b-\	-li	.	8dd\	-li	.	8gg\	-li	.	8GG/	-li	.	8d\	-li	.	8b-/	-li	.	8gg\	-li	.
.	.	.	.	.	.	8A/	8AA\	czło-	.	8a\	czło-	.	8cc#X\	czło-	.	8aa#X\	czło-	.	8AA/	czło-	.	8c#X\	czło-	.	8a/	czło-	.	8ee\	czło-	.
=33	=33	=33	=33	=33	=33	=33	=33	=33	=33	=33	=33	=33	=33	=33	=33	=33	=33	=33	=33	=33	=33	=33	=33	=33	=33	=33	=33	=33	=33	=33
2r	2r	.	1ryy	.	.	2A/	2AA\	-wie-	.	2cc#X\	-wie-	.	8b-\	-wie-	.	2gg\	-wie-	.	2AA/	-wie-	.	2A/	-wie-	.	2cc#X\	-wie-	.	2ee\	-wie-	.
.	.	.	.	.	.	.	.	.	.	.	.	.	8cc#X\	.	.	.	.	.	.	.	.	.	.	.	.	.	.	.	.	.
.	.	.	.	.	.	.	.	.	.	.	.	.	(8ee\L	.	.	.	.	.	.	.	.	.	.	.	.	.	.	.	.	.
.	.	.	.	.	.	.	.	.	.	.	.	.	8cc#\J)	.	.	.	.	.	.	.	.	.	.	.	.	.	.	.	.	.
(16qqE/LL	(16qqee/LL	.	.	.	.	.	.	.	.	.	.	.	.	.	.	.	.	.	.	.	.	.	.	.	.	.	.	.	.	.
16qqF#X/	16qqff#X/	.	.	.	.	.	.	.	.	.	.	.	.	.	.	.	.	.	.	.	.	.	.	.	.	.	.	.	.	.
16qqG#X/JJ	16qqgg#X/JJ	.	.	.	.	.	.	.	.	.	.	.	.	.	.	.	.	.	.	.	.	.	.	.	.	.	.	.	.	.
4A\	4aa\	.	.	.	.	4A/	4AA\	-cze	.	4dd\	-cze	.	4a/	-cze	.	4a/	-cze	.	4AA/	-cze	.	4A/	-cze	.	4a/	-cze	.	4a/	-cze	.
4E\)	4ee\)	.	.	.	.	4r	4ryy	.	.	4r	.	.	4r	.	.	4r	.	.	4r	.	.	4r	.	.	4r	.	.	4r	.	.
*	*	*	*	*	*	*v	*v	*	*	*	*	*	*	*	*	*	*	*	*	*	*	*	*	*	*	*	*	*	*	*
=34	=34	=34	=34	=34	=34	=34	=34	=34	=34	=34	=34	=34	=34	=34	=34	=34	=34	=34	=34	=34	=34	=34	=34	=34	=34	=34	=34	=34	=34
4C#X/	4cc#X\	>	1ryy	.	.	1r	.	.	1r	.	.	1r	.	.	1r	.	.	1r	.	.	1r	.	.	1r	.	.	1r	.	.
4AA/	4a\	.	.	.	.	.	.	.	.	.	.	.	.	.	.	.	.	.	.	.	.	.	.	.	.	.	.	.	.
8AA/L	4r	.	.	.	.	.	.	.	.	.	.	.	.	.	.	.	.	.	.	.	.	.	.	.	.	.	.	.	.
8GG#X/	.	.	.	.	.	.	.	.	.	.	.	.	.	.	.	.	.	.	.	.	.	.	.	.	.	.	.	.	.
!	!LO:TX:a:t=fl.	!	!	!	!	!	!	!	!	!	!	!	!	!	!	!	!	!	!	!	!	!	!	!	!	!	!	!	!
8AA/	8aa\L	.	.	.	.	.	.	.	.	.	.	.	.	.	.	.	.	.	.	.	.	.	.	.	.	.	.	.	.
8GGn/J	8bb-\J	]]	.	.	.	.	.	.	.	.	.	.	.	.	.	.	.	.	.	.	.	.	.	.	.	.	.	.	.
=35	=35	=35	=35	=35	=35	=35	=35	=35	=35	=35	=35	=35	=35	=35	=35	=35	=35	=35	=35	=35	=35	=35	=35	=35	=35	=35	=35	=35	=35
*^	*^	*	*	*	*	*	*	*	*	*	*	*	*	*	*	*	*	*	*	*	*	*	*	*	*	*	*	*	*
*	*^	*	*	*	*	*	*	*	*	*	*	*	*	*	*	*	*	*	*	*	*	*	*	*	*	*	*	*	*	*	*
*xywh-#131:40,1257,2184,489	*xywh-#131:40,1257,2184,489	*xywh-#131:40,1257,2184,489	*xywh-#131:40,1257,2184,489	*	*	*	*	*	*	*	*	*	*	*	*	*	*	*	*	*	*	*	*	*	*	*	*	*	*	*	*	*
2a\	4ryy	1FF	2cc\ 2ff 2ccc	2ryy	p	1ryy	.	.	1r	.	.	1r	.	.	1r	.	.	1r	.	.	1r	.	.	1r	.	.	1r	.	.	1r	.	.
.	8g\L	.	.	.	.	.	.	.	.	.	.	.	.	.	.	.	.	.	.	.	.	.	.	.	.	.	.	.	.	.	.	.
.	8a\J	.	.	.	.	.	.	.	.	.	.	.	.	.	.	.	.	.	.	.	.	.	.	.	.	.	.	.	.	.	.	.
2b-\	4ryy	.	2ddd/	4ff\	.	.	.	.	.	.	.	.	.	.	.	.	.	.	.	.	.	.	.	.	.	.	.	.	.	.	.	.
.	8ee\L	.	.	8ee/L	.	.	.	.	.	.	.	.	.	.	.	.	.	.	.	.	.	.	.	.	.	.	.	.	.	.	.	.
.	8dd\J	.	.	8dd/J	.	.	.	.	.	.	.	.	.	.	.	.	.	.	.	.	.	.	.	.	.	.	.	.	.	.	.	.
*	*v	*v	*	*	*	*	*	*	*	*	*	*	*	*	*	*	*	*	*	*	*	*	*	*	*	*	*	*	*	*	*	*
*	*	*v	*v	*	*	*	*	*	*	*	*	*	*	*	*	*	*	*	*	*	*	*	*	*	*	*	*	*	*	*	*
=36	=36	=36	=36	=36	=36	=36	=36	=36	=36	=36	=36	=36	=36	=36	=36	=36	=36	=36	=36	=36	=36	=36	=36	=36	=36	=36	=36	=36	=36	=36
2.a\	2.FF\	2.cc/ 2.ccc	.	1ryy	.	.	2r	.	.	2r	.	.	2r	.	.	2r	.	.	1r	.	.	1r	.	.	1r	.	.	1r	.	.
!	!	!	!	!	!	!	!	!	!LO:DY:a	!	!	!LO:DY:a	!	!	!LO:DY:a	!	!	!LO:DY:a	!LO:LB:g=original	!	!	!LO:LB:g=original	!	!	!LO:LB:g=original	!	!	!LO:LB:g=original	!	!
.	.	.	.	.	.	.	4F\	słysz	p	4cc\	słysz	p	4f/	słysz	p	4a/	słysz	p	.	.	.	.	.	.	.	.	.	.	.	.
4r	4ryy	4r	.	.	.	.	4F\	mod-	.	4cc\	mod-	.	4f/	mod-	.	4a/	mod-	.	.	.	.	.	.	.	.	.	.	.	.	.
!LO:LB:g=original	!	!LO:LB:g=original	!	!	!	!	!LO:LB:g=original	!	!	!LO:LB:g=original	!	!	!LO:LB:g=original	!	!	!LO:LB:g=original	!	!	!	!	!	!	!	!	!	!	!	!	!	!
*v	*v	*	*	*	*	*	*	*	*	*	*	*	*	*	*	*	*	*	*	*	*	*	*	*	*	*	*	*	*	*
=37	=37	=37	=37	=37	=37	=37	=37	=37	=37	=37	=37	=37	=37	=37	=37	=37	=37	=37	=37	=37	=37	=37	=37	=37	=37	=37	=37	=37	=37
*	*	*	*	*	*	*	*	*	*	*	*	*	*	*	*	*	*	*	*	*	*	*	*	*	*	*	*xywh-#131:175,1680,1995,214	*	*
*	*	*	*	*	*	*	*	*	*	*	*	*	*	*	*	*	*	*	*	*	*	*	*	*xywh-#131:160,1842,2074,177	*	*	*	*	*
*	*	*	*	*	*	*	*	*	*	*	*	*	*	*	*	*	*	*	*	*	*xywh-#131:202,1916,1954,266	*	*	*	*	*	*	*	*
*	*	*	*	*	*	*	*	*	*	*	*	*	*	*	*	*	*	*xywh-#131:183,2099,2069,219	*	*	*	*	*	*	*	*	*	*	*
*	*	*	*	*	*	*	*	*	*	*	*	*	*	*	*xywh-#131:176,2253,2019,206	*	*	*	*	*	*	*	*	*	*	*	*	*	*
*	*	*	*	*	*	*	*	*	*	*	*	*xywh-#131:165,2400,2084,188	*	*	*	*	*	*	*	*	*	*	*	*	*	*	*	*	*
*	*	*	*	*	*	*	*	*	*xywh-#131:178,2496,1959,230	*	*	*	*	*	*	*	*	*	*	*	*	*	*	*	*	*	*	*	*
*	*	*	*	*	*	*xywh-#131:149,2622,1964,279	*	*	*	*	*	*	*	*	*	*	*	*	*	*	*	*	*	*	*	*	*	*	*
*xywh-#131:124,2803,2042,413	*xywh-#131:124,2803,2042,413	*	*	*	*	*	*	*	*	*	*	*	*	*	*	*	*	*	*	*	*	*	*	*	*	*	*	*	*
1r	1r	.	1ryy	.	.	4.G\	-lit-	.	4.cc\	-lit-	.	4.a/	-lit-	.	4.cc\	-lit-	.	1r	.	.	1r	.	.	1r	.	.	1r	.	.
.	.	.	.	.	.	8F\	-wę	.	8cc\	-wę	.	8a/	-wę	.	8cc\	-wę	.	.	.	.	.	.	.	.	.	.	.	.	.
.	.	.	.	.	.	4F\	pro-	.	4cc\	pro-	.	4f/	pro-	.	4a/	pro-	.	.	.	.	.	.	.	.	.	.	.	.	.
.	.	.	.	.	.	4C\	-si-	.	8cc\L	-si-	.	4e/	-si-	.	4g/	-si-	.	.	.	.	.	.	.	.	.	.	.	.	.
.	.	.	.	.	.	.	.	.	8b-\J	.	.	.	.	.	.	.	.	.	.	.	.	.	.	.	.	.	.	.	.
=38	=38	=38	=38	=38	=38	=38	=38	=38	=38	=38	=38	=38	=38	=38	=38	=38	=38	=38	=38	=38	=38	=38	=38	=38	=38	=38	=38	=38	=38
1r	1r	.	1ryy	.	.	2.F\	-my	.	2.a/	-my	.	2.a/	-my	.	2.f/	-my	.	4r	.	mf	4r	.	mf	4r	.	mf	4r	.	mf
.	.	.	.	.	.	.	.	.	.	.	.	.	.	.	.	.	.	4F\	To	.	4F/	To	.	4f/	To	.	4a/	To	.
.	.	.	.	.	.	.	.	.	.	.	.	.	.	.	.	.	.	4F\	dać	.	4F/	dać	.	4f/	dać	.	4a/	dać	.
.	.	.	.	.	.	4r	.	.	4r	.	.	4r	.	.	4r	.	.	4F\	ra-	.	4G/	ra-	.	8e/L	ra-	.	4b-/	ra-	.
.	.	.	.	.	.	.	.	.	.	.	.	.	.	.	.	.	.	.	.	.	.	.	.	8d/J	.	.	.	.	.
=39	=39	=39	=39	=39	=39	=39	=39	=39	=39	=39	=39	=39	=39	=39	=39	=39	=39	=39	=39	=39	=39	=39	=39	=39	=39	=39	=39	=39	=39
1r	1r	.	1ryy	.	.	1r	.	.	2r	.	.	1r	.	.	1r	.	.	2F\	-czy	.	2A/	-czy	.	2c/	-czy	.	2cc/	-czy	.
!	!	!	!	!	!	!	!	!	!	!	!	!	!	!	!	!	!	!LO:TX:a:t=rall.	!	!	!LO:TX:a:t=rall.	!	!	!	!	!	!LO:TX:a:t=rall.	!	!
.	.	.	.	.	.	.	.	.	2r	.	.	.	.	.	.	.	.	4F\	Je-	.	4c\	Je-	.	4f/	Je-	.	4a/	Je-	.
.	.	.	.	.	.	.	.	.	.	.	.	.	.	.	.	.	.	4C\	-goż	.	8c\L	-goż	.	4e/	-goż	.	4g/	-goż	.
.	.	.	.	.	.	.	.	.	.	.	.	.	.	.	.	.	.	.	.	.	8B-\J	.	.	.	.	.	.	.	.
=40	=40	=40	=40	=40	=40	=40	=40	=40	=40	=40	=40	=40	=40	=40	=40	=40	=40	=40	=40	=40	=40	=40	=40	=40	=40	=40	=40	=40	=40
1r	1r	.	1ryy	.	.	2r	.	.	2r	.	.	2r	.	.	2r	.	.	4F\	pro-	.	4A/	pro-	.	4f/	pro-	.	4f/	pro-	.
.	.	.	.	.	.	.	.	.	.	.	.	.	.	.	.	.	.	4AA/	-si-	.	8A/L	-si-	.	4c#X/	-si-	.	4e/	-si-	.
.	.	.	.	.	.	.	.	.	.	.	.	.	.	.	.	.	.	.	.	.	8G/J	.	.	.	.	.	.	.	.
.	.	.	.	.	.	4r	.	.	4r	.	.	4r	.	.	4r	.	.	8D\	-my	.	8F/	-my	.	8d/	-my	.	8d/	-my	.
.	.	.	.	.	.	.	.	.	.	.	.	.	.	.	.	.	.	8r	.	.	8r	.	.	8r	.	.	8r	.	.
.	.	.	.	.	.	8D\	Daj	.	8dd\	Daj	.	8dd\	Daj	.	8dd\	Daj	.	8d\	Daj	.	8d\	Daj	.	8dd\	Daj	.	8dd\	Daj	.
.	.	.	.	.	.	8D\	na	.	8dd\	na	.	8dd\	na	.	8dd\	na	.	8d\	na	.	8d\	na	.	8dd\	na	.	8dd\	na	.
=41	=41	=41	=41	=41	=41	=41	=41	=41	=41	=41	=41	=41	=41	=41	=41	=41	=41	=41	=41	=41	=41	=41	=41	=41	=41	=41	=41	=41	=41
*	*	*	*	*	*	*^	*	*	*	*	*	*	*	*	*	*	*	*	*	*	*	*	*	*	*	*	*	*	*
*xywh-#131:124,2803,2042,413	*xywh-#131:124,2803,2042,413	*	*	*	*	*	*	*	*	*	*	*	*	*	*	*	*	*	*	*	*	*	*	*	*	*	*	*	*	*
*	*	*	*	*	*	*	*xywh-#131:149,2622,1964,279	*	*	*	*	*	*	*	*	*	*	*	*	*	*	*	*	*	*	*	*	*	*	*
1r	1r	.	1ryy	.	.	4G/	4GG\	świe-	.	4b-\	świe-	.	4b-\	świe-	.	4gg\	świe-	.	4G\	świe-	.	4B-\	świe-	.	4ee\	świe-	.	4gg\	świe-	.
.	.	.	.	.	.	4G/	4GG\	-cie	.	4b-/	-cie	.	4b-\	-cie	.	4gg\	-cie	.	4G\	-cie	.	4B-\	-cie	.	4ee\	-cie	.	4gg\	-cie	.
.	.	.	.	.	.	2A/	4AA\	zboż-	.	4a/	zbo-	.	4a\	zboż-	.	4ff\	zboż-	.	4A\	zboż-	.	4A/	zbo-	.	4dd\	zboż-	.	4ff\	z boż-	.
.	.	.	.	.	.	.	8BBn\L	-ny	.	4a/	-żny	.	8a/L	-ny	.	4een\	-ny	.	8B#X\L	-ny	.	4e\	-żny	.	4cc\	-ny	.	4ee\	-ny	.
.	.	.	.	.	.	.	8C#X\J	.	.	.	.	.	8g/J	.	.	.	.	.	8c#X\J	.	.	.	.	.	.	.	.	.	.	.
*	*	*	*	*	*	*v	*v	*	*	*	*	*	*	*	*	*	*	*	*	*	*	*	*	*	*	*	*	*	*	*
=42	=42	=42	=42	=42	=42	=42	=42	=42	=42	=42	=42	=42	=42	=42	=42	=42	=42	=42	=42	=42	=42	=42	=42	=42	=42	=42	=42	=42	=42
1r	1r	.	1ryy	.	.	2D\	po-	.	2dd\	po-	.	2f/	po-	.	2dd\	po-	.	2d\	po-	.	2d\	po-	.	2dd\	po-	.	2dd\	po-	.
.	.	.	.	.	.	4D\	-byt	.	4dd\	-byt	.	4f/	-byt	.	4dd\	-byt	.	4D\	-byt	.	4d\	-byt	.	4dd\	-byt	.	4dd\	-byt	.
.	.	.	.	.	.	4r	.	.	4r	.	.	4r	.	.	4r	.	.	4r	.	.	4r	.	.	4r	.	.	4r	.	.
=43	=43	=43	=43	=43	=43	=43	=43	=43	=43	=43	=43	=43	=43	=43	=43	=43	=43	=43	=43	=43	=43	=43	=43	=43	=43	=43	=43	=43	=43
!	!LO:TX:a:t=violino.	!	!	!	!	!	!	!	!	!	!	!	!	!	!	!	!	!	!	!	!	!	!	!	!	!	!	!	!
4r	2ff/ 2fff	f	1ryy	.	.	1r	.	.	1r	.	.	1r	.	.	1r	.	.	1r	.	.	1r	.	.	1r	.	.	1r	.	.
!	!	!	!	!	!	!LO:PB:g=original	!	!	!LO:PB:g=original	!	!	!LO:PB:g=original	!	!	!LO:PB:g=original	!	!	!LO:PB:g=original	!	!	!LO:PB:g=original	!	!	!LO:PB:g=original	!	!	!LO:PB:g=original	!	!
4r	.	.	.	.	.	.	.	.	.	.	.	.	.	.	.	.	.	.	.	.	.	.	.	.	.	.	.	.	.
(32qqf/LLL	.	.	.	.	.	.	.	.	.	.	.	.	.	.	.	.	.	.	.	.	.	.	.	.	.	.	.	.	.
32qqg/)	.	.	.	.	.	.	.	.	.	.	.	.	.	.	.	.	.	.	.	.	.	.	.	.	.	.	.	.	.
32qqa/JJJ	.	.	.	.	.	.	.	.	.	.	.	.	.	.	.	.	.	.	.	.	.	.	.	.	.	.	.	.	.
4b-\	2ddd/	.	.	.	.	.	.	.	.	.	.	.	.	.	.	.	.	.	.	.	.	.	.	.	.	.	.	.	.
4dd\	.	.	.	.	.	.	.	.	.	.	.	.	.	.	.	.	.	.	.	.	.	.	.	.	.	.	.	.	.
!LO:PB:g=original	!LO:PB:g=original	!	!	!	!	!	!	!	!	!	!	!	!	!	!	!	!	!	!	!	!	!	!	!	!	!	!	!	!
=44	=44	=44	=44	=44	=44	=44	=44	=44	=44	=44	=44	=44	=44	=44	=44	=44	=44	=44	=44	=44	=44	=44	=44	=44	=44	=44	=44	=44	=44
*	*	*	*	*	*	*	*	*	*	*	*	*	*	*	*	*	*	*	*	*	*	*	*	*	*	*	*xywh-#132:385,160,2042,230	*	*
*	*	*	*	*	*	*	*	*	*	*	*	*	*	*	*	*	*	*	*	*	*	*	*	*xywh-#132:396,317,1974,193	*	*	*	*	*
*	*	*	*	*	*	*	*	*	*	*	*	*	*	*	*	*	*	*	*	*	*xywh-#132:401,443,1951,209	*	*	*	*	*	*	*	*
*	*	*	*	*	*	*	*	*	*	*	*	*	*	*	*	*	*	*xywh-#132:407,594,1985,201	*	*	*	*	*	*	*	*	*	*	*
*	*	*	*	*	*	*	*	*	*	*	*	*	*	*	*xywh-#132:414,712,1933,227	*	*	*	*	*	*	*	*	*	*	*	*	*	*
*	*	*	*	*	*	*	*	*	*	*	*	*xywh-#132:391,866,1951,209	*	*	*	*	*	*	*	*	*	*	*	*	*	*	*	*	*
*	*	*	*	*	*	*	*	*	*xywh-#132:450,991,1893,217	*	*	*	*	*	*	*	*	*	*	*	*	*	*	*	*	*	*	*	*
*	*	*	*	*	*	*xywh-#132:431,1140,1969,217	*	*	*	*	*	*	*	*	*	*	*	*	*	*	*	*	*	*	*	*	*	*	*
*xywh-#132:356,1245,2035,426	*xywh-#132:356,1245,2035,426	*	*	*	*	*	*	*	*	*	*	*	*	*	*	*	*	*	*	*	*	*	*	*	*	*	*	*	*
2ryy	2a\ 2cc 2ccc	.	1ryy	.	.	1r	.	.	1r	.	.	1r	.	.	1r	.	.	1r	.	.	1r	.	.	1r	.	.	1r	.	.
16qqc/LL	.	.	.	.	.	.	.	.	.	.	.	.	.	.	.	.	.	.	.	.	.	.	.	.	.	.	.	.	.
(16qqd/	.	.	.	.	.	.	.	.	.	.	.	.	.	.	.	.	.	.	.	.	.	.	.	.	.	.	.	.	.
16qqe/JJ)	.	.	.	.	.	.	.	.	.	.	.	.	.	.	.	.	.	.	.	.	.	.	.	.	.	.	.	.	.
4f\	4a\ 4aa	.	.	.	.	.	.	.	.	.	.	.	.	.	.	.	.	.	.	.	.	.	.	.	.	.	.	.	.
8E\L 8e	8g\L 8gg	.	.	.	.	.	.	.	.	.	.	.	.	.	.	.	.	.	.	.	.	.	.	.	.	.	.	.	.
8D\J 8d	8f\J 8ff	.	.	.	.	.	.	.	.	.	.	.	.	.	.	.	.	.	.	.	.	.	.	.	.	.	.	.	.
=45	=45	=45	=45	=45	=45	=45	=45	=45	=45	=45	=45	=45	=45	=45	=45	=45	=45	=45	=45	=45	=45	=45	=45	=45	=45	=45	=45	=45	=45
4G\ 4e	4g\ 4gg	.	1ryy	.	.	1r	.	.	1r	.	.	1r	.	.	1r	.	.	1r	.	.	1r	.	.	1r	.	.	1r	.	.
8d\L	8f\L 8ff	.	.	.	.	.	.	.	.	.	.	.	.	.	.	.	.	.	.	.	.	.	.	.	.	.	.	.	.
8c\J	8e\J 8ee	.	.	.	.	.	.	.	.	.	.	.	.	.	.	.	.	.	.	.	.	.	.	.	.	.	.	.	.
2GG\ 2G	2f\ 2bn 2dd	.	.	.	.	.	.	.	.	.	.	.	.	.	.	.	.	.	.	.	.	.	.	.	.	.	.	.	.
=46	=46	=46	=46	=46	=46	=46	=46	=46	=46	=46	=46	=46	=46	=46	=46	=46	=46	=46	=46	=46	=46	=46	=46	=46	=46	=46	=46	=46	=46
(16qqG/LL	.	.	.	.	.	.	.	.	.	.	.	.	.	.	.	.	.	.	.	.	.	.	.	.	.	.	.	.	.
16qqA/)	.	.	.	.	.	.	.	.	.	.	.	.	.	.	.	.	.	.	.	.	.	.	.	.	.	.	.	.	.
16qqB-/JJ	.	.	.	.	.	.	.	.	.	.	.	.	.	.	.	.	.	.	.	.	.	.	.	.	.	.	.	.	.
*	*	*	*	*	*	*^	*	*	*	*	*	*	*	*	*	*	*	*	*	*	*	*	*	*	*	*	*	*	*
*	*	*	*	*	*	*	*xywh-#132:431,1140,1969,217	*	*	*	*	*	*	*	*	*	*	*	*	*	*	*	*	*	*	*	*	*	*	*
*xywh-#132:356,1245,2035,426	*xywh-#132:356,1245,2035,426	*	*	*	*	*	*	*	*	*	*	*	*	*	*	*	*	*	*	*	*	*	*	*	*	*	*	*	*	*
4c\	4e\ 4cc	.	1ryy	.	.	4r	4ryy	.	.	4r	.	.	4r	.	.	4r	.	.	4r	.	.	4r	.	.	4r	.	.	4r	.	.
4C\	4r	.	.	.	.	4c/	4C\	po	.	4cc\	po-	.	4cc\	po	.	4cc\	po	.	4c\	po-	.	4c\	po-	.	4cc\	po	.	4cc\	po	.
2r	2r	.	.	.	.	4c/	4C\	ży-	.	4cc\	-ży-	.	4cc\	ży-	.	4cc\	ży-	.	4c\	-ży-	.	4c\	-ży-	.	4cc\	ży-	.	4cc\	ży-	.
.	.	.	.	.	.	4c/	4C\	-wo-	.	4ee\	-wo-	.	4cc\	-wo-	.	4cc\	-wo-	.	4c\	-wo-	.	4c\	-wo-	.	4cc\	-wo-	.	4cc\	-wo-	.
=47	=47	=47	=47	=47	=47	=47	=47	=47	=47	=47	=47	=47	=47	=47	=47	=47	=47	=47	=47	=47	=47	=47	=47	=47	=47	=47	=47	=47	=47	=47
!	!	!	!	!	!	!	!	!	!LO:DY:a	!	!	!LO:DY:a	!	!	!LO:DY:a	!	!	!LO:DY:a	!	!	!LO:DY:a	!	!	!LO:DY:a	!	!	!LO:DY:a	!	!	!LO:DY:a
1r	1r	.	1ryy	.	.	2c/	2C\	-cie	f	2gg\	-cie	f	2cc\	-cie	f	2ee\	-cie	f	2c\	-cie	f	2c\	-cie	f	2g/	-cie	f	2ee\	-cie	f
.	.	.	.	.	.	2G/	2GG\	raj-	.	2gg\	raj-	.	(2b-\	raj-	.	(2dd\	raj-	.	(2G\	raj-	.	(2d\	raj-	.	(2b-\	raj-	.	(2dd\	raj-	.
=48	=48	=48	=48	=48	=48	=48	=48	=48	=48	=48	=48	=48	=48	=48	=48	=48	=48	=48	=48	=48	=48	=48	=48	=48	=48	=48	=48	=48	=48	=48
1r	1r	.	1ryy	.	.	8c/L	8C\L	.	.	4gg\	.	.	4cc\)	.	.	4ee\)	.	.	8c\L	.	.	4c\)	.	.	4g/)	.	.	4ee\)	.	.
.	.	.	.	.	.	8B-/J	8BB-\J	.	.	.	.	.	.	.	.	.	.	.	8B-\J)	.	.	.	.	.	.	.	.	.	.	.
.	.	.	.	.	.	4A/	4AA\	-ski	.	4ff\	-ski	.	4cc\	-ski	.	4ff\	-ski	.	4A\	-ski	.	4c\	-ski	.	4f/	-ski	.	4ff\	-ski	.
.	.	.	.	.	.	2B-/	2BB-\	prze-	.	2ff\	prze-	.	2b-\	prze-	.	2dd\	prze-	.	2B-\	prze-	.	2f\	prze-	.	2b-\	prze-	.	2dd\	prze-	.
=49	=49	=49	=49	=49	=49	=49	=49	=49	=49	=49	=49	=49	=49	=49	=49	=49	=49	=49	=49	=49	=49	=49	=49	=49	=49	=49	=49	=49	=49	=49
!	!	!	!	!	!	!	!	!	!LO:DY:a	!	!	!LO:DY:a	!	!	!LO:DY:a	!	!	!LO:DY:a	!	!	!LO:DY:a	!	!	!LO:DY:a	!	!	!LO:DY:a	!	!	!LO:DY:a
1r	1r	.	1ryy	.	.	2.B-;/	2.BB-;\	-byt	f	2.dd;\	-byt	f	2.f;/	-byt	f	2.dd;\	-byt	f	2.B-;\	-byt	f	2.f;\	-byt	f	2.b-;\	-byt	f	2dd;\	-byt	f
.	.	.	.	.	.	.	.	.	.	.	.	.	.	.	.	.	.	.	.	.	.	.	.	.	.	.	.	2r	.	.
.	.	.	.	.	.	4r	4ryy	.	.	4r	.	.	4r	.	.	4r	.	.	4r	.	.	4r	.	.	4r	.	.	.	.	.
=50	=50	=50	=50	=50	=50	=50	=50	=50	=50	=50	=50	=50	=50	=50	=50	=50	=50	=50	=50	=50	=50	=50	=50	=50	=50	=50	=50	=50	=50	=50
!	!	!	!	!	!	!	!	!	!LO:DY:a	!	!	!LO:DY:a	!	!	!LO:DY:a	!	!	!LO:DY:a	!	!	!LO:DY:a	!	!	!LO:DY:a	!	!	!LO:DY:a	!	!	!LO:DY:a
1r	1r	.	1ryy	.	.	2F\	2ryy	Ky-	p	2cc\	Ky-	p	2a/	Ky-	p	2cc\	Ku-	p	2F\	Ky-	p	4c\	Ky-	p	2a/	Ky-	p	2cc\	Ky-	p
!LO:LB:g=original	!LO:LB:g=original	!	!	!	!	!	!	!	!	!	!	!	!	!	!	!	!	!	!	!	!	!	!	!	!	!	!	!	!	!
.	.	.	.	.	.	.	.	.	.	.	.	.	.	.	.	.	.	.	.	.	.	8d\L	.	.	.	.	.	.	.	.
.	.	.	.	.	.	.	.	.	.	.	.	.	.	.	.	.	.	.	.	.	.	8e\J	.	.	.	.	.	.	.	.
.	.	.	.	.	.	4D\	4ryy	-ri-	.	4a/	-ri-	.	4f/	-ri-	.	4a\	-ri-	.	4D/	-ri-	.	4f\	.	.	4d/	-ri-	.	4a\	-ri-	.
.	.	.	.	.	.	4B-/	4BB-\	-e	.	4b-/	-e	.	4d/	-e	.	4b-\	-e	.	4BB-/	-e	.	4d\	-e	.	4g/	-e	.	4b-\	-e	.
!	!	!	!	!	!	!LO:LB:g=original	!LO:LB:g=original	!	!	!LO:LB:g=original	!	!	!LO:LB:g=original	!	!	!LO:LB:g=original	!	!	!LO:LB:g=original	!	!	!LO:LB:g=original	!	!	!LO:LB:g=original	!	!	!LO:LB:g=original	!	!
=51	=51	=51	=51	=51	=51	=51	=51	=51	=51	=51	=51	=51	=51	=51	=51	=51	=51	=51	=51	=51	=51	=51	=51	=51	=51	=51	=51	=51	=51	=51
*	*	*	*	*	*	*	*	*	*	*	*	*	*	*	*	*	*	*	*	*	*	*	*	*	*	*	*	*xywh-#132:387,1613,2001,196	*	*
*	*	*	*	*	*	*	*	*	*	*	*	*	*	*	*	*	*	*	*	*	*	*	*	*	*xywh-#132:416,1747,1917,198	*	*	*	*	*
*	*	*	*	*	*	*	*	*	*	*	*	*	*	*	*	*	*	*	*	*	*	*xywh-#132:405,1878,1974,204	*	*	*	*	*	*	*	*
*	*	*	*	*	*	*	*	*	*	*	*	*	*	*	*	*	*	*	*xywh-#132:429,2021,1886,193	*	*	*	*	*	*	*	*	*	*	*
*	*	*	*	*	*	*	*	*	*	*	*	*	*	*	*	*xywh-#132:437,2165,2001,185	*	*	*	*	*	*	*	*	*	*	*	*	*	*
*	*	*	*	*	*	*	*	*	*	*	*	*	*xywh-#132:421,2283,1930,211	*	*	*	*	*	*	*	*	*	*	*	*	*	*	*	*	*
*	*	*	*	*	*	*	*	*	*	*xywh-#132:418,2424,1914,224	*	*	*	*	*	*	*	*	*	*	*	*	*	*	*	*	*	*	*	*
*	*	*	*	*	*	*xywh-#132:387,2542,2003,258	*xywh-#132:387,2542,2003,258	*	*	*	*	*	*	*	*	*	*	*	*	*	*	*	*	*	*	*	*	*	*	*
*xywh-#132:338,2708,2053,499	*xywh-#132:338,2708,2053,499	*	*	*	*	*	*	*	*	*	*	*	*	*	*	*	*	*	*	*	*	*	*	*	*	*	*	*	*	*
!	!	!	!	!	!	!LO:TX:a:t=rit	!	!	!	!LO:TX:a:t=ritard.	!	!	!LO:TX:a:t=ritard.	!	!	!LO:TX:a:t=ritard.	!	!	!LO:TX:a:t=ritard.	!	!	!LO:TX:a:t=ritard.	!	!	!LO:TX:a:t=ritard.	!	!	!LO:TX:a:t=ritard.	!	!
1r	1r	.	1ryy	.	.	4G/	2C\	e	.	2cc\	e-	.	(4f/	e-	.	2g/	e-	.	2C/	e-	.	2c\	e-	.	(4f/	e-	.	2g/	e-	.
.	.	.	.	.	.	4c/	.	.	.	.	.	.	8e/L	.	.	.	.	.	.	.	.	.	.	.	8e/L	.	.	.	.	.
.	.	.	.	.	.	.	.	.	.	.	.	.	8d/J)	.	.	.	.	.	.	.	.	.	.	.	8d/J)	.	.	.	.	.
.	.	.	.	.	.	4.c\	2ryy	le-	.	4.cc\	-le-	.	4.e/	-le-	.	4.g/	-le-	.	4.C/	-le-	.	4.c\	-le-	.	4.f/	-le-	.	4.g/	-le-	.
.	.	.	.	.	.	16c\LL	.	-i	.	(16cc\LL	-i-	.	8e/	-i-	.	8g/	-i-	.	8C/	-i-	.	(16c\LL	-i-	.	8e/	-i-	.	8g/	-i-	.
.	.	.	.	.	.	16B-\JJ	.	.	.	16b-\JJ)	.	.	.	.	.	.	.	.	.	.	.	16B-\JJ)	.	.	.	.	.	.	.	.
*	*	*	*	*	*	*v	*v	*	*	*	*	*	*	*	*	*	*	*	*	*	*	*	*	*	*	*	*	*	*	*
=52||	=52||	=52||	=52||	=52||	=52||	=52||	=52||	=52||	=52||	=52||	=52||	=52||	=52||	=52||	=52||	=52||	=52||	=52||	=52||	=52||	=52||	=52||	=52||	=52||	=52||	=52||	=52||	=52||	=52||
*M12/8	*M12/8	*	*M12/8	*	*	*M12/8	*	*	*M12/8	*	*	*M12/8	*	*	*M12/8	*	*	*M12/8	*	*	*M12/8	*	*	*M12/8	*	*	*M12/8	*	*
!	!	!	!	!	!	!LO:TX:a:t=  a tempo	!	!	!LO:TX:a:t=  a tempo	!	!	!LO:TX:a:t=  a tempo	!	!	!LO:TX:a:t=  a tempo	!	!	!LO:TX:a:t=  a tempo	!	!	!LO:TX:a:t=  a tempo	!	!	!LO:TX:a:t=  a tempo	!	!	!LO:TX:a:t=  a tempo	!	!
2.FFF\ 2.FF	8F/L 8f	.	1.ryy	.	.	4.F\	son	.	4.f\	-son	.	4.f/	-son	.	4.f/	-son	.	4.F\	-son	.	4.A/	-son	.	4.f/	-son	.	4.f/	-son	.
.	8F/ 8f	.	.	.	.	.	.	.	.	.	.	.	.	.	.	.	.	.	.	.	.	.	.	.	.	.	.	.	.
.	8F/J 8f	.	.	.	.	.	.	.	.	.	.	.	.	.	.	.	.	.	.	.	.	.	.	.	.	.	.	.	.
.	8F/L 8f	.	.	.	.	4r	.	.	4r	.	.	4.f/	Ky-	.	4r	.	.	4r	.	.	4r	.	.	4r	.	.	4r	.	.
.	8F/ 8f	.	.	.	.	.	.	.	.	.	.	.	.	.	.	.	.	.	.	.	.	.	.	.	.	.	.	.	.
.	8F/J 8f	.	.	.	.	8r	.	.	8r	.	.	.	.	.	8r	.	.	8r	.	.	8r	.	.	8r	.	.	8r	.	.
4.FFF\ 4.FF	8F/L 8f	.	.	.	.	2.r	.	.	2.r	.	.	4.f/	-ri-	.	2.r	.	.	2.r	.	.	2.r	.	.	2.r	.	.	2.r	.	.
.	8F/ 8f	.	.	.	.	.	.	.	.	.	.	.	.	.	.	.	.	.	.	.	.	.	.	.	.	.	.	.	.
.	8F/J 8f	.	.	.	.	.	.	.	.	.	.	.	.	.	.	.	.	.	.	.	.	.	.	.	.	.	.	.	.
4.GGG\ 4.GG	8E/L 8e	.	.	.	.	.	.	.	.	.	.	4.e/	-e	.	.	.	.	.	.	.	.	.	.	.	.	.	.	.	.
.	8E/ 8e	.	.	.	.	.	.	.	.	.	.	.	.	.	.	.	.	.	.	.	.	.	.	.	.	.	.	.	.
.	8E/J 8e	.	.	.	.	.	.	.	.	.	.	.	.	.	.	.	.	.	.	.	.	.	.	.	.	.	.	.	.
=53	=53	=53	=53	=53	=53	=53	=53	=53	=53	=53	=53	=53	=53	=53	=53	=53	=53	=53	=53	=53	=53	=53	=53	=53	=53	=53	=53	=53	=53
2.AAA\ 2.AA	8D#X/L 8d#X	.	1.ryy	.	.	1.r	.	.	1.r	.	.	4.d#X/	e-	.	1.r	.	.	2.r	.	.	2.r	.	.	2.r	.	.	2.r	.	.
.	8D#/ 8d#	.	.	.	.	.	.	.	.	.	.	.	.	.	.	.	.	.	.	.	.	.	.	.	.	.	.	.	.
.	8D#/J 8d#	.	.	.	.	.	.	.	.	.	.	.	.	.	.	.	.	.	.	.	.	.	.	.	.	.	.	.	.
.	8F#X/L 8f#X	.	.	.	.	.	.	.	.	.	.	4.f#X/	-le-	.	.	.	.	.	.	.	.	.	.	.	.	.	.	.	.
.	8F#/ 8f#	.	.	.	.	.	.	.	.	.	.	.	.	.	.	.	.	.	.	.	.	.	.	.	.	.	.	.	.
.	8F#/J 8f#	.	.	.	.	.	.	.	.	.	.	.	.	.	.	.	.	.	.	.	.	.	.	.	.	.	.	.	.
4.AAA\ 4.AA	8A/L 8a	.	.	.	.	.	.	.	.	.	.	(4.a/	-i-	.	.	.	.	4r	.	.	4r	.	.	4r	.	.	4r	.	.
.	8A/ 8a	.	.	.	.	.	.	.	.	.	.	.	.	.	.	.	.	.	.	.	.	.	.	.	.	.	.	.	.
.	8A/J 8a	.	.	.	.	.	.	.	.	.	.	.	.	.	.	.	.	8r	.	.	8r	.	.	8r	.	.	8r	.	.
4AAA\ 4AA	8F#/L 8f#	.	.	.	.	.	.	.	.	.	.	4.f#/)	.	.	.	.	.	8A\	e-	.	8c\	e-	.	8e/	e-	.	8f#X/	e-	.
.	8F#/ 8f#	.	.	.	.	.	.	.	.	.	.	.	.	.	.	.	.	8A\	-le-	.	8c\	-le-	.	8e/	-le-	.	8f#/	-le-	.
24C\LL	8F#/J 8f#	.	.	.	.	.	.	.	.	.	.	.	.	.	.	.	.	8A\	-i-	.	8c\	-i-	.	8e/	-i-	.	8f#/	-i-	.
24BB-\	.	.	.	.	.	.	.	.	.	.	.	.	.	.	.	.	.	.	.	.	.	.	.	.	.	.	.	.	.
24AA\JJ	.	.	.	.	.	.	.	.	.	.	.	.	.	.	.	.	.	.	.	.	.	.	.	.	.	.	.	.	.
=54	=54	=54	=54	=54	=54	=54	=54	=54	=54	=54	=54	=54	=54	=54	=54	=54	=54	=54	=54	=54	=54	=54	=54	=54	=54	=54	=54	=54	=54
2.BBB-\ 2.BB-	8G/L 8g	.	1.ryy	.	.	1.r	.	.	1.r	.	.	4.g/	-son	.	(2.g/	Twe-	.	4.B-\	-son	.	4.B-\	-son	.	4.d/	-son	.	4.g/	-son	.
!	!	!	!	!	!	!	!LO:PB:g=original	!	!	!LO:PB:g=original	!	!	!	!	!	!	!	!	!	!	!	!	!	!	!	!	!	!	!
.	8G/ 8g	.	.	.	.	.	.	.	.	.	.	.	.	.	.	.	.	.	.	.	.	.	.	.	.	.	.	.	.
.	8G/J 8g	.	.	.	.	.	.	.	.	.	.	.	.	.	.	.	.	.	.	.	.	.	.	.	.	.	.	.	.
.	8G/L 8g	.	.	.	.	.	.	.	.	.	.	4r	.	.	.	.	.	4r	.	.	4r	.	.	4r	.	.	4r	.	.
.	8G/ 8g	.	.	.	.	.	.	.	.	.	.	.	.	.	.	.	.	.	.	.	.	.	.	.	.	.	.	.	.
.	8G/J 8g	.	.	.	.	.	.	.	.	.	.	8r	.	.	.	.	.	8r	.	.	8r	.	.	8r	.	.	8r	.	.
4.AAA\ 4.AA	8F#X/L 8f#X	.	.	.	.	.	.	.	.	.	.	2.r	.	.	4.f#X/)	.	.	2.r	.	.	2.r	.	.	2.r	.	.	2.r	.	.
!	!	!	!	!	!	!	!	!	!	!	!	!LO:PB:g=original	!	!	!LO:PB:g=original	!	!	!LO:PB:g=original	!	!	!LO:PB:g=original	!	!	!LO:PB:g=original	!	!	!LO:PB:g=original	!	!
.	8F#/ 8f#	.	.	.	.	.	.	.	.	.	.	.	.	.	.	.	.	.	.	.	.	.	.	.	.	.	.	.	.
.	8F#/J 8f#	.	.	.	.	.	.	.	.	.	.	.	.	.	.	.	.	.	.	.	.	.	.	.	.	.	.	.	.
4.BBB-\ 4.BB-	8G/L 8g	.	.	.	.	.	.	.	.	.	.	.	.	.	4.g/	-go	.	.	.	.	.	.	.	.	.	.	.	.	.
!LO:PB:g=original	!LO:PB:g=original	!	!	!	!	!	!	!	!	!	!	!	!	!	!	!LO:PB:g=original	!	!	!	!	!	!	!	!	!	!	!	!	!
.	8G/ 8g	.	.	.	.	.	.	.	.	.	.	.	.	.	.	.	.	.	.	.	.	.	.	.	.	.	.	.	.
.	8G/J 8g	.	.	.	.	.	.	.	.	.	.	.	.	.	.	.	.	.	.	.	.	.	.	.	.	.	.	.	.
!	!LO:PB:g=original	!	!	!	!	!	!	!	!	!	!	!	!	!	!	!	!	!	!	!	!	!	!	!	!	!	!	!	!
=55	=55	=55	=55	=55	=55	=55	=55	=55	=55	=55	=55	=55	=55	=55	=55	=55	=55	=55	=55	=55	=55	=55	=55	=55	=55	=55	=55	=55	=55
*	*	*	*	*	*	*	*	*	*	*	*	*	*	*	*	*	*	*	*	*	*	*	*	*	*	*	*xywh-#133:269,185,1911,219	*	*
*	*	*	*	*	*	*	*	*	*	*	*	*	*	*	*	*	*	*	*	*	*	*	*	*xywh-#133:269,330,1914,207	*	*	*	*	*
*	*	*	*	*	*	*	*	*	*	*	*	*	*	*	*	*	*	*	*	*	*xywh-#133:244,458,1917,229	*	*	*	*	*	*	*	*
*	*	*	*	*	*	*	*	*	*	*	*	*	*	*	*	*	*	*xywh-#133:244,603,1971,213	*	*	*	*	*	*	*	*	*	*	*
*	*	*	*	*	*	*	*	*	*	*	*	*	*	*	*xywh-#133:225,744,1977,210	*	*	*	*	*	*	*	*	*	*	*	*	*	*
*	*	*	*	*	*	*	*	*	*	*	*	*xywh-#133:250,863,1874,219	*	*	*	*	*	*	*	*	*	*	*	*	*	*	*	*	*
*	*	*	*	*	*	*	*	*	*xywh-#133:206,1008,1936,222	*	*	*	*	*	*	*	*	*	*	*	*	*	*	*	*	*	*	*	*
*	*	*	*	*	*	*xywh-#133:197,1149,2002,226	*	*	*	*	*	*	*	*	*	*	*	*	*	*	*	*	*	*	*	*	*	*	*
*xywh-#133:197,1242,2052,483	*xywh-#133:197,1242,2052,483	*	*	*	*	*	*	*	*	*	*	*	*	*	*	*	*	*	*	*	*	*	*	*	*	*	*	*	*
2.BBBn/ 2.BBn	8G#X/L 8g#X	.	1.ryy	.	.	1.r	.	.	1.r	.	.	1.r	.	.	(4.g#X/	sy-	.	1r	.	.	1r	.	.	1r	.	.	1r	.	.
.	8G#/ 8g#	.	.	.	.	.	.	.	.	.	.	.	.	.	.	.	.	.	.	.	.	.	.	.	.	.	.	.	.
.	8G#/J 8g#	.	.	.	.	.	.	.	.	.	.	.	.	.	.	.	.	.	.	.	.	.	.	.	.	.	.	.	.
.	8Bn/L 8bn	.	.	.	.	.	.	.	.	.	.	.	.	.	4.bn/)	.	.	.	.	.	.	.	.	.	.	.	.	.	.
.	8B/ 8b	.	.	.	.	.	.	.	.	.	.	.	.	.	.	.	.	.	.	.	.	.	.	.	.	.	.	.	.
.	8B/J 8b	.	.	.	.	.	.	.	.	.	.	.	.	.	.	.	.	.	.	.	.	.	.	.	.	.	.	.	.
4.BBB/ 4.BB	8d/L 8dd	.	.	.	.	.	.	.	.	.	.	.	.	.	4.dd\	-na	.	.	.	.	.	.	.	.	.	.	.	.	.
.	8d/ 8dd	.	.	.	.	.	.	.	.	.	.	.	.	.	.	.	.	.	.	.	.	.	.	.	.	.	.	.	.
.	8d/J 8dd	.	.	.	.	.	.	.	.	.	.	.	.	.	.	.	.	8r	.	.	8r	.	.	8r	.	.	8r	.	.
!	!	!	!	!	!	!	!	!	!	!	!	!	!	!	!	!	!	!	!	!LO:DY:a	!	!	!LO:DY:a	!	!	!LO:DY:a	!	!	!LO:DY:a
8.BBB\L 8.BB	8G#/L 8g#	.	.	.	.	.	.	.	.	.	.	.	.	.	4.g#/	Chrzci-	.	4Bn\	z boż-	<	4d\	z boż-	<	4f/	z boż-	<	4g#X/	z boż-	<
.	8G#/ 8g#	.	.	.	.	.	.	.	.	.	.	.	.	.	.	.	.	.	.	.	.	.	.	.	.	.	.	.	.
!LO:N:vis=32	!	!	!	!	!	!	!	!	!	!	!	!	!	!	!	!	!	!	!	!	!	!	!	!	!	!	!	!	!
16D\L	.	.	.	.	.	.	.	.	.	.	.	.	.	.	.	.	.	.	.	.	.	.	.	.	.	.	.	.	.
!LO:N:vis=32	!	!	!	!	!	!	!	!	!	!	!	!	!	!	!	!	!	!	!	!	!	!	!	!	!	!	!	!	!
16C\	8G#/J 8g#	.	.	.	.	.	.	.	.	.	.	.	.	.	.	.	.	8B\	-ny	[[	8d\	-ny	[[	8f/	-ny	[[	8g#/	-ny	[[
!LO:N:vis=32	!	!	!	!	!	!	!	!	!	!	!	!	!	!	!	!	!	!	!	!	!	!	!	!	!	!	!	!	!
16BB\JJ	.	.	.	.	.	.	.	.	.	.	.	.	.	.	.	.	.	.	.	.	.	.	.	.	.	.	.	.	.
=56	=56	=56	=56	=56	=56	=56	=56	=56	=56	=56	=56	=56	=56	=56	=56	=56	=56	=56	=56	=56	=56	=56	=56	=56	=56	=56	=56	=56	=56
!	!	!	!	!	!	!	!	!	!	!	!	!	!	!	!	!	!	!	!	!LO:DY:a	!	!	!LO:DY:a	!	!	!LO:DY:a	!	!	!LO:DY:a
2.CC/ 2.C	8A/L 8a	f	1.ryy	.	.	1.r	.	.	2.a/	zboż-	.	2.a/	z boż-	.	2.a/	-cie-	.	4.c\	czas	>	4.c\	czas	>	4.e/	czas	>	4.a/	czas	>
.	8A/ 8a	.	.	.	.	.	.	.	.	.	.	.	.	.	.	.	.	.	.	.	.	.	.	.	.	.	.	.	.
.	8A/J 8a	.	.	.	.	.	.	.	.	.	.	.	.	.	.	.	.	.	.	.	.	.	.	.	.	.	.	.	.
.	8A/L 8a	.	.	.	.	.	.	.	.	.	.	.	.	.	.	.	.	1r	.	]	1r	.	]	1r	.	]	1r	.	]
.	8A/ 8a	.	.	.	.	.	.	.	.	.	.	.	.	.	.	.	.	.	.	.	.	.	.	.	.	.	.	.	.
.	8A/J 8a	.	.	.	.	.	.	.	.	.	.	.	.	.	.	.	.	.	.	.	.	.	.	.	.	.	.	.	.
!	!	!LO:DY:a	!	!	!	!	!	!	!	!	!LO:DY:a	!	!	!LO:DY:a	!	!	!LO:DY:a	!	!	!	!	!	!	!	!	!	!	!	!
8BBBn/L 8BBn	8G#X/L 8g#X	<	.	.	.	.	.	.	4.g#X/	-ny	<	4.g#X/	-ny	<	4.g#X/	.	<	.	.	.	.	.	.	.	.	.	.	.	.
8BBB/ 8BB	8G#/ 8g#	.	.	.	.	.	.	.	.	.	.	.	.	.	.	.	.	.	.	.	.	.	.	.	.	.	.	.	.
8BBB/J 8BB	8G#/J 8g#	.	.	.	.	.	.	.	.	.	.	.	.	.	.	.	.	.	.	.	.	.	.	.	.	.	.	.	.
8CC/L 8C	8A/L 8a	.	.	.	.	.	.	.	4.a/	czas	[[	4.a/	czas	[[	4.a/	-la	[[	.	.	.	.	.	.	.	.	.	.	.	.
8CC/ 8C	8A/ 8a	.	.	.	.	.	.	.	.	.	.	.	.	.	.	.	.	.	.	.	.	.	.	.	.	.	.	.	.
8CC/J 8C	8A/J 8a	[[	.	.	.	.	.	.	.	.	.	.	.	.	.	.	.	8r	.	.	8r	.	.	8r	.	.	8r	.	.
=57	=57	=57	=57	=57	=57	=57	=57	=57	=57	=57	=57	=57	=57	=57	=57	=57	=57	=57	=57	=57	=57	=57	=57	=57	=57	=57	=57	=57	=57
4.CC#X/ 4.C#X	8B-X/L 8b-X	.	1.ryy	.	.	2.r	.	.	4.b-X\	z boż-	.	4.b-X\	z boż-	.	4.b-X\	z boż-	.	2r	.	.	2r	.	.	2r	.	.	2r	.	.
.	8B-/ 8b-	.	.	.	.	.	.	.	.	.	.	.	.	.	.	.	.	.	.	.	.	.	.	.	.	.	.	.	.
.	8B-/J 8b-	.	.	.	.	.	.	.	.	.	.	.	.	.	.	.	.	.	.	.	.	.	.	.	.	.	.	.	.
4.EE/ 4.E	8c#X/L 8cc#X	.	.	.	.	.	.	.	4.cc#X\	-ny	.	4.cc#X\	-ny	.	4.cc#X\	-ny	.	.	.	.	.	.	.	.	.	.	.	.	.
.	8c#/ 8cc#	.	.	.	.	.	.	.	.	.	.	.	.	.	.	.	.	4r	.	.	4r	.	.	4r	.	.	4r	.	.
.	8c#/J 8cc#	.	.	.	.	.	.	.	.	.	.	.	.	.	.	.	.	.	.	.	.	.	.	.	.	.	.	.	.
4.GG/ 4.G	8e/L 8ee	.	.	.	.	4r	.	.	(4.ee\	czas	.	(4.ee\	czas	.	(4.ee\	czas	.	4.c#X\	u-	.	4.e\	u-	.	4.ee\	u-	.	4.ee\	u-	.
.	8e/ 8ee	.	.	.	.	.	.	.	.	.	.	.	.	.	.	.	.	.	.	.	.	.	.	.	.	.	.	.	.
.	8e/J 8ee	.	.	.	.	8r	.	.	.	.	.	.	.	.	.	.	.	.	.	.	.	.	.	.	.	.	.	.	.
4EE/ 4E	8c#/L 8cc#	.	.	.	.	4r	.	.	4cc#\)	.	.	4cc#\)	.	.	4cc#\)	.	.	4e\	-słysz	.	4e\	-słysz	.	4cc#X\	-słysz	.	4cc#X\	-słysz	.
.	8c#/ 8cc#	.	.	.	.	.	.	.	.	.	.	.	.	.	.	.	.	.	.	.	.	.	.	.	.	.	.	.	.
8GG\ 8G	8e/J 8ee	.	.	.	.	8B#X\	u-	.	8ee\	u-	.	8cc#\	u-	.	8ee\	u-	.	8c#\	u-	.	8e\	u-	.	8ee\	u-	.	8ee\	u-	.
=58	=58	=58	=58	=58	=58	=58	=58	=58	=58	=58	=58	=58	=58	=58	=58	=58	=58	=58	=58	=58	=58	=58	=58	=58	=58	=58	=58	=58	=58
!	!	!	!	!	!	!	!	!LO:DY:a	!	!	!LO:DY:a	!	!	!LO:DY:a	!	!	!LO:DY:a	!	!	!LO:DY:a	!	!	!LO:DY:a	!	!	!LO:DY:a	!	!	!LO:DY:a
8C#X\L 8c#X	8g\L 8ee 8gg	f	1.ryy	.	.	4.c#X\	-słysz	f	4.gg\	-słysz	f	4.ee\	-słysz	f	4.gg\	-słysz	f	4.c#X\	-słysz	f	4.e\	-słysz	f	4.ee\	-słysz	f	4.gg\	-słysz	f
8C#\ 8c#	8g\ 8ee 8gg	.	.	.	.	.	.	.	.	.	.	.	.	.	.	.	.	.	.	.	.	.	.	.	.	.	.	.	.
8C#\J 8c#	8g\J 8ee 8gg	.	.	.	.	.	.	.	.	.	.	.	.	.	.	.	.	.	.	.	.	.	.	.	.	.	.	.	.
8C#\L 8c#	8g\L 8ee 8gg	.	.	.	.	4c#\	u-	.	4gg\	u-	.	4.ee\	u-	.	4gg\	u-	.	4.c#\	gło-	.	4.e\	gło-	.	4.ee\	gło-	.	4.gg\	gło-	.
8C#\ 8c#	8ag\ 8ee 8gg	.	.	.	.	.	.	.	.	.	.	.	.	.	.	.	.	.	.	.	.	.	.	.	.	.	.	.	.
8C#\J 8c#	8g\J 8ee 8gg	.	.	.	.	8d\	-słysz	.	8gg\	-słysz	.	.	.	.	8gg\	-słysz	.	.	.	.	.	.	.	.	.	.	.	.	.
8D\L 8d	8f/L 8dd 8ff	.	.	.	.	(4.d\	gło-	.	(4.ff\	gło-	.	4.dd\	-szłysz	.	(4.gg\	gło-	.	4.d\	-sy	.	4.d\	-sy	.	4.dd\	-sy	.	4.ff\	-sy	.
8D\ 8d	8f/ 8dd 8ff	.	.	.	.	.	.	.	.	.	.	.	.	.	.	.	.	.	.	.	.	.	.	.	.	.	.	.	.
8D\J 8d	8f/J 8dd 8ff	.	.	.	.	.	.	.	.	.	.	.	.	.	.	.	.	.	.	.	.	.	.	.	.	.	.	.	.
!	!	!	!	!	!	!	!	!LO:DY:a	!	!	!LO:DY:a	!	!	!LO:DY:a	!	!	!LO:DY:a	!	!	!	!	!	!	!	!	!	!	!	!
8AA\L 8A	8e/L 8cc 8ee	.	.	.	.	8A\)	.	>	8ee\)	.	>	8ccn\	gło-	>	8ee\)	.	>	4r	.	.	4r	.	.	4r	.	.	4r	.	.
8AA\ 8A	8e/ 8cc 8ee	.	.	.	.	8A\	-sy	.	8ee\	-sy	.	8cc\	-sy	.	8ee\	-sy	.	.	.	.	.	.	.	.	.	.	.	.	.
8AA\J 8A	8e/J 8cc 8ee	.	.	.	.	8A\	na-	]]	8ee\	na-	]]	8cc\	na-	]]	8ee\	na-	]]	8r	.	.	8r	.	.	8r	.	.	8r	.	.
!LO:LB:g=original	!LO:LB:g=original	!	!	!	!	!	!LO:LB:g=original	!	!	!LO:LB:g=original	!	!	!LO:LB:g=original	!	!LO:LB:g=original	!	!	!	!LO:LB:g=original	!	!	!LO:LB:g=original	!	!	!LO:LB:g=original	!	!	!LO:LB:g=original	!
=59	=59	=59	=59	=59	=59	=59	=59	=59	=59	=59	=59	=59	=59	=59	=59	=59	=59	=59	=59	=59	=59	=59	=59	=59	=59	=59	=59	=59	=59
*	*	*	*	*	*	*	*	*	*	*	*	*	*	*	*	*	*	*	*	*	*	*	*	*	*	*	*xywh-#133:208,1608,1974,251	*	*
*	*	*	*	*	*	*	*	*	*	*	*	*	*	*	*	*	*	*	*	*	*	*	*	*xywh-#133:189,1761,1974,219	*	*	*	*	*
*	*	*	*	*	*	*	*	*	*	*	*	*	*	*	*	*	*	*	*	*	*xywh-#133:214,1906,1987,204	*	*	*	*	*	*	*	*
*	*	*	*	*	*	*	*	*	*	*	*	*	*	*	*	*	*	*xywh-#133:239,2034,1974,210	*	*	*	*	*	*	*	*	*	*	*
*	*	*	*	*	*	*	*	*	*	*	*	*	*	*	*xywh-#133:211,2182,1993,200	*	*	*	*	*	*	*	*	*	*	*	*	*	*
*	*	*	*	*	*	*	*	*	*	*	*	*xywh-#133:223,2320,1993,216	*	*	*	*	*	*	*	*	*	*	*	*	*	*	*	*	*
*	*	*	*	*	*	*	*	*	*xywh-#133:195,2468,2002,197	*	*	*	*	*	*	*	*	*	*	*	*	*	*	*	*	*	*	*	*
*	*	*	*	*	*	*xywh-#133:258,2599,1911,194	*	*	*	*	*	*	*	*	*	*	*	*	*	*	*	*	*	*	*	*	*	*	*
*xywh-#133:186,2697,2037,486	*xywh-#133:186,2697,2037,486	*	*	*	*	*	*	*	*	*	*	*	*	*	*	*	*	*	*	*	*	*	*	*	*	*	*	*	*
8BB-\L 8B-	8d/L 8b- 8dd	.	1.ryy	.	.	4.B-\	-peł-	.	4.dd\	-peł-	.	4.b-\	-peł-	.	4.dd\	-peł-	.	4r	.	.	4r	.	.	4r	.	.	4r	.	.
8BB-\ 8B-	8d/ 8b- 8dd	.	.	.	.	.	.	.	.	.	.	.	.	.	.	.	.	.	.	.	.	.	.	.	.	.	.	.	.
8BB-\J 8B-	8d/J 8b- 8dd	.	.	.	.	.	.	.	.	.	.	.	.	.	.	.	.	8r	.	.	8r	.	.	8r	.	.	8r	.	.
8FF#X\L 8F#X	8d/L 8a 8cc	.	.	.	.	4.F#X\	-nij	.	4.cc\	-nij	.	4.a/	-nij	.	4.cc\	-nij	.	4F#X\	czło-	.	4c\	czło-	.	4a/	czło-	.	4cc\	czło-	.
8FF#\ 8F#	8d/ 8a 8cc	.	.	.	.	.	.	.	.	.	.	.	.	.	.	.	.	.	.	.	.	.	.	.	.	.	.	.	.
8FF#\J 8F#	8d/J 8a 8cc	.	.	.	.	.	.	.	.	.	.	.	.	.	.	.	.	8F#\	-wie-	.	8c\	-wie-	.	8a/	-wie-	.	8cc\	-wie-	.
8GG\L 8G	8d/L 8b-	.	.	.	.	8G\	my-	.	8dd\	myś-	.	8g/	myś-	.	8b-\	myś-	.	4G\	-cze	.	4B-\	-cze	.	4g/	-cze-	.	4b-\	-cze	.
8GG\ 8G	8d/ 8b-	.	.	.	.	8G\	-sli	.	8dd\	-li	.	8g/	-li	.	8b-\	-li	.	.	.	.	.	.	.	.	.	.	.	.	.
8FFn\J 8Fn	8d/J 8a	.	.	.	.	8Fn\	czło-	.	8dd\	czło-	.	8a/	czło-	.	8a/	czło-	.	8r	.	.	8r	.	.	8r	.	.	8r	.	.
8EE\L 8E	8c#X/L 8g 8a	.	.	.	.	(4E\	-wie-	.	4cc#X\	-wie-	.	(4c#X/	-wie-	.	(4g/	-wie-	.	4r	.	.	4r	.	.	4r	.	.	4r	.	.
8EE\ 8E	8c#/ 8g 8a	.	.	.	.	.	.	.	.	.	.	.	.	.	.	.	.	.	.	.	.	.	.	.	.	.	.	.	.
8DD\J 8D	8d/J 8f 8a	.	.	.	.	8D\)	.	.	8r	.	.	8d/)	.	.	8f/)	.	.	8r	.	.	8r	.	.	8r	.	.	8r	.	.
=60	=60	=60	=60	=60	=60	=60	=60	=60	=60	=60	=60	=60	=60	=60	=60	=60	=60	=60	=60	=60	=60	=60	=60	=60	=60	=60	=60	=60	=60
8CC#X/ 8C#X	8e/ 8a	p	1.ryy	.	.	4.C#X/	-cze.	.	4.c/	-cze.	.	4.e/	-cze.	.	4.f/	-cze.	.	1.r	.	.	1.r	.	.	1.r	.	.	1.r	.	.
8cc#X\L 8ee	8aa/L	.	.	.	.	.	.	.	.	.	.	.	.	.	.	.	.	.	.	.	.	.	.	.	.	.	.	.	.
8cc#\J 8ee	8aa/J	.	.	.	.	.	.	.	.	.	.	.	.	.	.	.	.	.	.	.	.	.	.	.	.	.	.	.	.
8cc#\L 8ee	8aa/L	.	.	.	.	4r	.	.	4r	.	.	4r	.	.	4r	.	.	.	.	.	.	.	.	.	.	.	.	.	.
8cc#\ 8ee	8aa/	.	.	.	.	.	.	.	.	.	.	.	.	.	.	.	.	.	.	.	.	.	.	.	.	.	.	.	.
8cc#\J 8ee	8aa/J	.	.	.	.	8r	.	.	8r	.	.	8r	.	.	8r	.	.	.	.	.	.	.	.	.	.	.	.	.	.
8dd\L	8aa/L 8ddd	.	.	.	.	2.r	.	.	2.r	.	.	2.r	.	.	2.r	.	.	.	.	.	.	.	.	.	.	.	.	.	.
8ee\	8gg/ 8ccc	.	.	.	.	.	.	.	.	.	.	.	.	.	.	.	.	.	.	.	.	.	.	.	.	.	.	.	.
8dd\J	8ff/J 8bb-	.	.	.	.	.	.	.	.	.	.	.	.	.	.	.	.	.	.	.	.	.	.	.	.	.	.	.	.
8ccn\L	8ee/L 8aa	.	.	.	.	.	.	.	.	.	.	.	.	.	.	.	.	.	.	.	.	.	.	.	.	.	.	.	.
8b-\	8dd/ 8gg	.	.	.	.	.	.	.	.	.	.	.	.	.	.	.	.	.	.	.	.	.	.	.	.	.	.	.	.
8a\J	8cc/J 8ff	.	.	.	.	.	.	.	.	.	.	.	.	.	.	.	.	.	.	.	.	.	.	.	.	.	.	.	.
=61	=61	=61	=61	=61	=61	=61	=61	=61	=61	=61	=61	=61	=61	=61	=61	=61	=61	=61	=61	=61	=61	=61	=61	=61	=61	=61	=61	=61	=61
4g\ 4b- 4dd	4ee/	.	1.ryy	.	.	1.r	.	.	1.r	.	.	1.r	.	.	1.r	.	.	1.r	.	.	1.r	.	.	1.r	.	.	1.r	.	.
8g\ 8b- 8dd	8ee/	.	.	.	.	.	.	.	.	.	.	.	.	.	.	.	.	.	.	.	.	.	.	.	.	.	.	.	.
8g\L 8b- 8dd	8ee/L	.	.	.	.	.	.	.	.	.	.	.	.	.	.	.	.	.	.	.	.	.	.	.	.	.	.	.	.
8g\ 8b- 8dd	8ee/	.	.	.	.	.	.	.	.	.	.	.	.	.	.	.	.	.	.	.	.	.	.	.	.	.	.	.	.
8g\J 8b- 8dd	8ee/J	.	.	.	.	.	.	.	.	.	.	.	.	.	.	.	.	.	.	.	.	.	.	.	.	.	.	.	.
4g#X\ 4bn 4dd	4ee/	.	.	.	.	.	.	.	.	.	.	.	.	.	.	.	.	.	.	.	.	.	.	.	.	.	.	.	.
8g#\ 8b 8dd	8ee/	.	.	.	.	.	.	.	.	.	.	.	.	.	.	.	.	.	.	.	.	.	.	.	.	.	.	.	.
8g#\L 8b 8dd	8ee/L	.	.	.	.	.	.	.	.	.	.	.	.	.	.	.	.	.	.	.	.	.	.	.	.	.	.	.	.
8g#\ 8b 8dd	8ee/	.	.	.	.	.	.	.	.	.	.	.	.	.	.	.	.	.	.	.	.	.	.	.	.	.	.	.	.
8g#\J 8b 8dd	8ee/J	.	.	.	.	.	.	.	.	.	.	.	.	.	.	.	.	.	.	.	.	.	.	.	.	.	.	.	.
=62	=62	=62	=62	=62	=62	=62	=62	=62	=62	=62	=62	=62	=62	=62	=62	=62	=62	=62	=62	=62	=62	=62	=62	=62	=62	=62	=62	=62	=62
4.a\ 4.cc#X	4.ee/	.	1.ryy	.	.	1.r	.	.	1.r	.	.	1.r	.	.	1.r	.	.	1.r	.	.	1.r	.	.	1.r	.	.	1.r	.	.
4.r	4A/ 4a	.	.	.	.	.	.	.	.	.	.	.	.	.	.	.	.	.	.	.	.	.	.	.	.	.	.	.	.
.	8A/ 8a	.	.	.	.	.	.	.	.	.	.	.	.	.	.	.	.	.	.	.	.	.	.	.	.	.	.	.	.
2.r	8A/L 8a	.	.	.	.	.	.	.	.	.	.	.	.	.	.	.	.	.	.	.	.	.	.	.	.	.	.	.	.
.	8A/ 8a	.	.	.	.	.	.	.	.	.	.	.	.	.	.	.	.	.	.	.	.	.	.	.	.	.	.	.	.
.	8A/J 8a	.	.	.	.	.	.	.	.	.	.	.	.	.	.	.	.	.	.	.	.	.	.	.	.	.	.	.	.
.	8A/L 8a	.	.	.	.	.	.	.	.	.	.	.	.	.	.	.	.	.	.	.	.	.	.	.	.	.	.	.	.
.	8A/ 8a	.	.	.	.	.	.	.	.	.	.	.	.	.	.	.	.	.	.	.	.	.	.	.	.	.	.	.	.
.	8A/J 8a	.	.	.	.	.	.	.	.	.	.	.	.	.	.	.	.	.	.	.	.	.	.	.	.	.	.	.	.
==	==	==	==	==	==	==	==	==	==	==	==	==	==	==	==	==	==	==	==	==	==	==	==	==	==	==	==	==	==
*-	*-	*-	*-	*-	*-	*-	*-	*-	*-	*-	*-	*-	*-	*-	*-	*-	*-	*-	*-	*-	*-	*-	*-	*-	*-	*-	*-	*-	*-
!!!system-decoration: [(s1,s2,s3,s4)][(s5,s6,s7,s8,s9)][(s10,s11)]
!!!ENC: Berenika Jozajtis
!!!END: 2022-02-25
!!!ENC: Julita Ruszuk
!!!END: 2022-03-01
!!!YEC: Copyright 2022 Narodowy Instytut Fryderyka Chopina (https://polishscores.org)
!!!YEM: License CC-BY-4.0 (https://creativecommons.org/licenses/by/4.0)
!!!IIIF: https://polona.pl/iiif/item/MTkzODI1Mzc/manifest.js
!!!ENC-iiif: Bartosz Żurakowski
!!!END-iiif: 2022-09-10
